xishuo-wang/Sengi-MuJoCo/Code/Data/MuJoCo Locomotion data.csv
step,sim_time,real_time,base_x,base_y,base_z,base_pitch,front_joint_pos,front_joint_vel,front_joint_torque,back_joint_pos,back_joint_vel,back_joint_torque,fore_leg_pos,fore_leg_vel,fore_leg_torque,hind_leg_pos,hind_leg_vel,hind_leg_torque,fore_leg_2_joint_pos,fore_leg_2_joint_vel,fore_leg_2_joint_torque,fore_leg_3_joint_pos,fore_leg_3_joint_vel,fore_leg_3_joint_torque,hind_leg_2_joint_pos,hind_leg_2_joint_vel,hind_leg_2_joint_torque,hind_leg_3_joint_pos,hind_leg_3_joint_vel,hind_leg_3_joint_torque
0,0.0,0.0,-0.2,0.0,0.23,0.0,0.0,0.0,10.0,0.0,0.0,10.0,0.0,0.0,0.32798452253189603,0.0,0.0,-10.0,0.0,0.0,-10.0,0.0,0.0,-10.0,0.0,0.0,-10.0,0.0,0.0,-10.0
1,0.000833,0.026990175247192383,-0.2,0.0,0.23,0.0,0.009440785559727815,11.333476062098217,1.161796600412436,0.009434038309172568,11.325376121455665,1.169968415513526,-0.000243645070299342,-0.292491080791527,0.6292496707257306,-0.010069234468369083,-12.087916528654361,-9.214077775363965,-0.01029597710179304,-12.36011656877916,-10.0,-0.010810803270609652,-12.978155186806305,-10.0,-0.010981562028809783,-13.1831476936492,-10.0,-0.010587826883152693,-12.710476450363378,-10.0
2,0.001666,0.026990175247192383,-0.20000167818933323,8.435200501674996e-08,0.23010822626751634,1.4756043869197147e-06,0.019809380831911867,12.44729324391843,0.033978013139083885,0.019800980222533984,12.44530841940146,0.03605118554864045,-6.581735610953525e-05,0.21347864848716297,0.1278392810044567,-0.029717704933250086,-23.587599597696283,2.3294027494340943,-0.031105766712975193,-24.98174022951039,-1.1642304950649227,-0.03235285675829484,-25.86080850862568,-0.27297534449389227,-0.032764393212113566,-26.149857362909703,-10.0,-0.03181417665791677,-25.48181245469877,-10.0
3,0.002499,0.026990175247192383,-0.2000044944301276,1.6904057631912573e-07,0.23022015518018563,3.246921006844489e-06,0.030219153480464223,12.496725868610271,-1.263411669629802,0.030387061386130912,12.708380748615761,-1.4767528520601423,0.000217330470948028,0.3399133578122008,0.45086389972773655,-0.04710476127662332,-20.872816738743385,1.7060008410032548,-0.05313735689805549,-26.448487617143215,3.0790157486069982,-0.054194197267244684,-26.220096649399576,2.8615934424067433,-0.06509946256676113,-38.81761026968497,0.4950281328797068,-0.06374919228384118,-38.337353692586326,0.0012570835801293256
4,0.003332,0.026990175247192383,-0.20000193377971323,2.4503095431472937e-07,0.2303258710232425,-8.940441776473288e-05,0.039419254638636866,11.044539205489365,0.18645852917807992,0.03958718152355481,11.044561989704563,0.18474919259133987,0.0010217222236063059,0.9656563657362279,-0.17658540902355924,-0.0627764911461246,-18.81360128391511,-0.3491845640226825,-0.07481563082357058,-26.02433844599651,2.6858891129727995,-0.07570406456274495,-25.82216962244931,2.4930082320351996,-0.09685152650335345,-38.11772381343615,-0.19055635387189795,-0.09569792882288378,-38.35382537700191,0.03399736431247624
5,0.004165,0.026990175247192383,-0.1999979310488069,2.999860930123525e-07,0.2304081120969266,-0.0002351206643924744,0.04881071749341064,11.274265131781243,-0.047497478392835135,0.048962391579092004,11.254753968231931,-0.029510399376876384,0.0016422082787840042,0.7448812187007181,0.04432249415948776,-0.0788044325114507,-19.241226128842843,0.08603244566563939,-0.09615195906484364,-25.613839425297797,2.3029931709441738,-0.09689278002036918,-25.43663320243005,2.1336021102159015,-0.12881491641194925,-38.37141645689772,0.07955151880692135,-0.1276080566277495,-38.30747635638139,0.003530852666951745
6,0.004998000000000001,0.026990175247192383,-0.1999944486272002,3.4593207733857934e-07,0.2304848185500649,-0.00037336764292418177,0.058161792055568214,11.225779786503685,-0.012624121622405615,0.05831408937856305,11.226527970553477,-0.014902685438369312,0.0023148337154012245,0.8074735133460026,-0.015804971811624356,-0.09474281853181044,-19.13371671111614,0.0012095729184197213,-0.11715791673554167,-25.217236099277347,1.9509710227056904,-0.11776946224773059,-25.062043490229787,1.802303901958632,-0.1606917994010545,-38.26756661357171,0.018027047589807887,-0.1595146251707703,-38.303203533038214,0.04188018122430259
7,0.005831000000000001,0.026990175247192383,-0.19999101754264942,3.8098336327120426e-07,0.2305534023144779,-0.000507878226332243,0.06750834253097163,11.220348709968093,-0.020779411391506297,0.06765478899797953,11.213324873249068,-0.015227508743891172,0.002976641383386748,0.794486996381181,-0.00023972782404194093,-0.11067996767628079,-19.132231866110864,0.022430960937399158,-0.13784310059337374,-24.8321534907948,1.6073025150729563,-0.1383415039730097,-24.69632860177564,1.476874773088334,-0.19254882495370781,-38.243728154445776,0.03636906546263585,-0.19137640474045964,-38.249435257730276,0.03033984738499118
8,0.0066640000000000015,0.026990175247192383,-0.19998773883787177,4.051554442247196e-07,0.23061416212479385,-0.0006406723716809193,0.07684175479273188,11.204576544730191,-1.195582136607571,0.07698466124060223,11.200326821876,-1.1927693359402154,0.00364387489656809,0.8010006160640357,0.33901085735465314,-0.1265937976472145,-19.104237660184562,1.9403180162550617,-0.15821637515073456,-24.457712553854517,3.710828376390454,-0.15861591684266996,-24.339031056014722,3.596526399115801,-0.224366065901312,-38.19596752413467,3.251146329117418,-0.22320575412144,-38.21050345855985,3.2540697724777212
9,0.007497000000000002,0.026990175247192383,-0.19998458519938728,4.18260106339898e-07,0.2306670550945746,-0.000771148800799429,0.0850297564649709,9.82953382021491,0.17745970963466062,0.08520937678184394,9.87360809272714,0.13158131338046153,0.004715456803586053,1.2864128535629813,-0.14792039551185598,-0.14053368111233455,-16.734553979735928,-0.42663208796282026,-0.1781590263126188,-23.94075769734001,3.227862293766284,-0.17846907586413394,-23.83332415541895,3.1239164310657257,-0.25470347923460507,-36.419463785465894,1.5016269452537978,-0.2535583781332532,-36.43772390373736,1.5084266035450944
10,0.008330000000000002,0.026990175247192383,-0.19998006233437,4.1590692103708514e-07,0.2306990971360879,-0.0009163837211038327,0.09339791154175753,10.045804413909522,-0.04261329637847522,0.09353654091826694,9.996595601948366,0.005201238379240525,0.0056345662141123925,1.103372641688282,0.035125525960195914,-0.15489085922343832,-17.23550793649913,0.08122839149097039,-0.19769656273567937,-23.454425477863847,2.77146770079222,-0.19792721921795675,-23.359115670855704,2.678854722371766,-0.28372765776385794,-34.84295141566972,-0.06103341777762217,-0.2825967157124189,-34.85994907462866,-0.055354704000212696
11,0.009163000000000003,0.026990175247192383,-0.19997651883899545,4.04477884465653e-07,0.23072522401323112,-0.0010529578413998565,0.10173090855187246,10.00359785127843,-0.013197681800530936,0.10187648600135284,10.011938875253175,-0.023002528164630553,0.006597684321383803,1.1562042104098564,-0.016079090381527453,-0.1691654754649144,-17.13639404739027,0.003053000616232482,-0.2168528335539986,-22.99672367145165,2.3578572298100076,-0.21701317078604884,-22.912306804432294,2.2754367446380637,-0.31281408101290675,-34.91767496884614,0.052715612902263675,-0.3116945892953591,-34.93142086787536,0.05525701397516558
12,0.009996000000000003,0.026990175247192383,-0.1999730206462616,3.833032205990358e-07,0.23074366014262251,-0.001181731624104364,0.11005948403572183,9.998289896577875,-0.020673985468616873,0.1101969940631336,9.988605116183399,-0.01237241770540548,0.00755115750524538,1.1446256709022535,-0.0027688675012369907,-0.18343731286888895,-17.13305810801267,0.02068746412401512,-0.23564811860961155,-22.56336741370101,1.9650546329276752,-0.23574628368722067,-22.48873097379573,1.8917955977442928,-0.3418432294365107,-34.84891767539485,0.02250968680179488,-0.34073335953909245,-34.860468479872004,0.022952155488923154
13,0.010829000000000004,0.02799224853515625,-0.19996969726184322,3.5231723825591815e-07,0.23075440460446528,-0.0013097148565045151,0.11837541545888344,9.983110952174817,-1.1439202033038016,0.11850962061116817,9.979143515047499,-1.1413031862944933,0.008508634632017738,1.149432325056853,0.2425688844350693,-0.19768840890086986,-17.108158501777798,1.8073416352999823,-0.2541004916232371,-22.151708299670574,3.756012021012759,-0.25414387649459214,-22.08594574714459,3.6910415225677076,-0.3708468303097704,-34.818248347250524,2.989279304833152,-0.36974762023405383,-34.831045252054494,2.9910767768323687
14,0.011662000000000004,0.02799224853515625,-0.19996651048768246,3.1150711114032384e-07,0.2307574868468431,-0.0014349763215481066,0.12559797145529897,8.670535409862563,0.16693127551415005,0.12576228188820807,8.706676202929048,0.12913894506081453,0.009769577422242753,1.51373684300722,-0.12307864620624452,-0.21009984063975398,-14.899677957844087,-0.3987725623992502,-0.27211359162669324,-21.624369752048157,3.261405283737084,-0.2721057768640649,-21.562905605609554,3.200223939458477,-0.3983648994606708,-33.03489693985643,1.229368472062845,-0.39727940538454465,-33.05136272567924,1.2349719290418033
15,0.012495000000000004,0.02799224853515625,-0.19996217850500714,2.606510676623167e-07,0.23074079860262683,-0.0015698431727621306,0.13298958027389055,8.873479974299599,-0.039427880638949475,0.13311637505027044,8.82844317174353,0.004332476632964655,0.010904586699655487,1.3625561553574232,0.028018363880728217,-0.22290155834772069,-15.368208532973236,0.0760272186552019,-0.28971755684591327,-21.133211547683107,2.798887541876415,-0.28966370670893354,-21.077946992639436,2.743448179668122,-0.42458909095304703,-31.481622439827426,-0.3134042299276145,-0.42349716180808605,-31.473897267156552,-0.3320561381656917
16,0.013328000000000005,0.02799224853515625,-0.19995875239250002,2.0187379880823154e-07,0.23071826960271463,-0.0016963664577349822,0.14034976611922187,8.835757317324509,-0.013736530454723506,0.14048469429278324,8.845521299535177,-0.02485836152798171,0.012076726609698777,1.4071307443496879,-0.0156769896500251,-0.2356296204598324,-15.279786449113715,0.0069703142178261235,-0.3069402706040882,-20.675526720498066,2.381909124391736,-0.3068451475950983,-20.625979455179777,2.331776905323593,-0.4511429326373155,-31.87736096550835,0.11870139041794348,-0.4500702637010794,-31.90048246457783,0.1310887109212533
17,0.014161000000000005,0.02799224853515625,-0.19995532862226414,1.348371555334036e-07,0.23068824899988766,-0.0018172361980885155,0.14770465646653266,8.829400176843706,-0.019411672610710085,0.14783089774115693,8.818971726739116,-0.010254272017024113,0.013239985217550803,1.3964689169892266,-0.0040390569260031275,-0.2483504452610807,-15.271098200778246,0.017658401963110637,-0.3238055348374127,-20.246415646247886,1.9900258490246117,-0.32367355899290323,-20.202174547184818,1.9448338490113872,-0.4775691964387691,-31.72420624424204,0.0007742699803143793,-0.47650324566325175,-31.73227126311211,-0.001827753128701426
18,0.014994000000000006,0.02799224853515625,-0.1999520866815406,5.964515151473372e-08,0.2306506929804405,-0.0019375488744605466,0.1550478395200015,8.815345802483593,-1.0958890305821898,0.15517114207682398,8.81181792997244,-1.093603511300542,0.014406138305795013,1.3999436833663979,0.15457093999087493,-0.26105413927026333,-15.250533024228892,1.6868935984279534,-0.3403344289258071,-19.84260995005333,3.5377728742290544,-0.3401697571399327,-19.803359120083382,3.497227165530127,-0.5039928660086505,-31.72109192062581,2.758561448737868,-0.5029381956050406,-31.734633783660154,2.761550350809203
19,0.015827000000000004,0.02799224853515625,-0.1999489770227196,-2.3710823836641944e-08,0.23060566247673098,-0.002055388145198475,0.16134530054243715,7.559977217809886,0.15802156470347906,0.16149284259246297,7.589076249266485,0.12743771544765692,0.01578277981502917,1.6526308634263582,-0.09927396371934608,-0.2720390852553573,-13.187210066139253,-0.37441181174247473,-0.3564461752160446,-19.34183228119747,3.06668782482538,-0.35624971909965825,-19.30367582199947,3.0269212247481754,-0.5289273311563092,-29.933331509794346,0.9911106521971356,-0.527886660324044,-29.95013771789122,0.9975038500243454
20,0.016660000000000005,0.02799224853515625,-0.1999449139644611,-1.1154041519816877e-07,0.23054183534629522,-0.0021789691624585278,0.16780232538242126,7.751530420148994,-0.03658526519915212,0.16791797817238938,7.713247995109742,0.0005311650037698734,0.017058247004046335,1.5311730960590209,0.022037823199900566,-0.2833935780855412,-13.630843733714213,0.07493487220259631,-0.3721710917086253,-18.877450771405385,2.6281306365089137,-0.3719457438442547,-18.842766800235886,2.591550188135261,-0.5528194556760262,-28.682022232553457,-0.25031241703243956,-0.5517657449311449,-28.666368075751492,-0.2765100282503308
21,0.017493000000000005,0.02799224853515625,-0.19994162610773392,-2.0602272357864332e-07,0.2304722456848798,-0.0022958719564586338,0.17423028176556649,7.716634313499658,-0.013003673747637279,0.1743522533219932,7.724219867471583,-0.021818490141331248,0.01836442339744613,1.5680388876348093,-0.014612566672267492,-0.29467469955111525,-13.542762863834366,0.004734437702260452,-0.3875372248631221,-18.446738480788454,2.233651519421943,-0.3872857272143729,-18.415346182614865,2.2001038672612117,-0.5769743763444883,-28.997503803676036,0.09848426687120848,-0.5759407249569259,-29.021584664803118,0.11222222647827018
22,0.018326000000000005,0.031508445739746094,-0.19993835934143195,-3.0704745214382075e-07,0.2303953030380182,-0.0024081369177687585,0.1806529452643193,7.710280310627623,-0.017980249340855403,0.18076718236669453,7.700995251742291,-0.009847188340593394,0.019662543870306068,1.558367914597765,-0.004640239630637179,-0.30595119438403306,-13.53720868297458,0.017118509256904613,-0.4025685371053716,-18.044792607742526,1.8647035328120216,-0.40229354711569587,-18.016590517794704,1.834113786850542,-0.6010232133198976,-28.87015243146365,0.00355498772019347,-0.5999957608714364,-28.87759413506654,0.0007157385518290482
23,0.019159000000000006,0.031508445739746094,-0.1999352570772262,-4.1448242000708806e-07,0.23031099319887002,-0.0025200134692275242,0.18706467158720624,7.697150447643388,-1.050953263416515,0.18717604429060303,7.693711793407539,-1.0486392875134032,0.02096263385491392,1.560732274439199,0.07417349292096263,-0.31721111014711784,-13.517305838036926,1.576238548241971,-0.41728620208653316,-17.66826528350729,3.211868050217252,-0.416990324795623,-17.64319049210938,3.1842041804504584,-0.6250665483743256,-28.86354748430734,2.546575276856431,-0.624050047168665,-28.87669423436808,2.5495510714846406
24,0.019992000000000006,0.031508445739746094,-0.19993227795438617,-5.283382995748097e-07,0.2302193618388195,-0.00262990588082089,0.19247480746686943,6.494760959979826,0.15023092197269006,0.19260523552337303,6.5176365339375835,0.12604003614731152,0.022387686067045155,1.7107469533388173,-0.07680914936678276,-0.3268629847693431,-11.586884300390489,-0.35249093909696094,-0.4316212393905183,-17.208928336116585,2.778566239879912,-0.43130415224507923,-17.18346632587788,2.750305674109783,-0.6476203349587667,-27.075374050949627,0.7758734326504053,-0.6466173145344304,-27.0915574619033,0.7820206553425448
25,0.020825000000000007,0.031508445739746094,-0.1999285112641303,-6.414176866791471e-07,0.23010980406158535,-0.0027425180031625256,0.19803591195096698,6.675995779228767,-0.03371888559495195,0.19813969157116096,6.644004859289239,-0.0027768731637641264,0.023734537536884665,1.6168685112118981,0.0168833367949267,-0.33686551650779634,-12.00784122263291,0.07366460461524516,-0.4456021559933288,-16.78381344875216,2.3759452825571046,-0.44526570195669,-16.76056387948477,2.3497061102290435,-0.6693591701243697,-26.097041015129772,-0.19313752820614116,-0.6683459303169005,-26.084772848103327,-0.2155441179676949
26,0.021658000000000007,0.031508445739746094,-0.19992539984551833,-7.599782574627886e-07,0.22999454079044557,-0.002849963183990411,0.20357012113489123,6.643708504110747,-0.012073713503813754,0.20367872991250038,6.64950581193208,-0.018968301474079297,0.025106204014494163,1.6466584365059984,-0.013279830167793612,-0.346795144123524,-11.920321267380203,0.0026654824021509205,-0.4592554307273443,-16.39048587516869,2.014137425466262,-0.4589013829872592,-16.36936498267607,1.9898533601686537,-0.6913003264857664,-26.339923603117352,0.08031298344965454,-0.6903052372608822,-26.361713017985224,0.0921454480792514
27,0.022491000000000008,0.031508445739746094,-0.19992231737058908,-8.834051909636328e-07,0.22987204217818796,-0.0029537139444879776,0.20909908087866713,6.63740665519315,-0.016444295237785844,0.2092009068616275,6.629264044570371,-0.009331217894630095,0.02647063144505877,1.6379681039190965,-0.004889733738902259,-0.3567223872141683,-11.917458692250035,0.016421674090644323,-0.4726036813275054,-16.02431044437103,1.6765557847493109,-0.47223383759354237,-16.005347666606454,1.654274238963484,-0.7131548590078962,-26.235933399915652,0.006218712054896658,-0.7121660553423086,-26.24347908934732,0.0038702735861408932
28,0.023324000000000008,0.031508445739746094,-0.19991937966903098,-1.011613002518816e-06,0.22974231657198158,-0.0030572599793131975,0.21461784192639421,6.625163322601541,-1.0086357203930958,0.21471696389197878,6.621917203302857,-1.0063923041324836,0.02783621656024859,1.6393578813803367,0.0007891577223933591,-0.3666336290586877,-11.898249513228524,1.4750196080058902,-0.4856668741792747,-15.682104263828647,2.851871936321852,-0.48528306378073616,-15.66533755965642,2.831618350652577,-0.7350012283927402,-26.226133715298822,2.3571917046269517,-0.7340227516253643,-26.23853095204774,2.3597989360127514
29,0.02415700000000001,0.031508445739746094,-0.19991655236988648,-1.1446161524930695e-06,0.22960539718328557,-0.003159269659954849,0.21917630725984016,5.472347339070766,0.143212776589409,0.2192898477693532,5.489656515455485,0.12475663065015641,0.029248331202254615,1.6952156566698975,-0.055845725839592165,-0.37503792228740107,-10.08918754947589,-0.33265308754739265,-0.4983855523703265,-15.268521237757275,2.4605869762400965,-0.4979868802863667,-15.250680078788129,2.4391126836422057,-0.7553605530381217,-24.4409659608421,0.5869678032096879,-0.7543947874175518,-24.456225440801255,0.5925643560186706
30,0.02499000000000001,0.031508445739746094,-0.19991308055941825,-1.2721675277932164e-06,0.22945132305152055,-0.0032616754917325825,0.2238778525072238,5.644111941637037,-0.030950111664509117,0.22396948965615363,5.617817391116956,-0.005583578170308023,0.03060348554509479,1.626835945786523,0.012326479763016207,-0.38377550129004223,-10.489290519377114,0.07217200829246184,-0.510785618379177,-14.886033624070226,2.0972113067206513,-0.5103734386348833,-14.869817945398108,2.077229782538966,-0.7751045723946464,-23.70230414948947,-0.14290320799204848,-0.7741310036468896,-23.692936649865267,-0.16201169929341042
31,0.02582300000000001,0.031508445739746094,-0.19991015742308793,-1.4042241769490382e-06,0.22929157873303635,-0.003360177099931085,0.22855451583259256,5.614241687117352,-0.011088482134465338,0.22864972730119804,5.618532587088143,-0.01634322990038717,0.031978039099754725,1.6501243153180551,-0.011854857117145193,-0.39244089705359314,-10.402635970649369,0.000789809381644857,-0.5228912921131299,-14.53262152935524,1.7707435481550897,-0.522466894893731,-14.517954692494257,1.7521910189497472,-0.7949978751518846,-23.881515915051825,0.06522492285648629,-0.7940406606848696,-23.90114890513803,0.07528043340352508
32,0.02665600000000001,0.031508445739746094,-0.19990726543302031,-1.5396449331841684e-06,0.22912469519243073,-0.003455790906814369,0.23322600202283253,5.608026638943523,-0.01492578162720487,0.23331532828242338,5.600961562095241,-0.008765788135325858,0.0333461496805938,1.6423896528680388,-0.004954703965880783,-0.4011058270423937,-10.402076817287648,0.015635311105985705,-0.5347232449080901,-14.204024963937824,1.46648504892282,-0.5342879864081307,-14.190986211764322,1.4494543190683904,-0.8148208054853452,-23.79703521423841,0.00918326322668972,-0.8138698465278085,-23.804544829458514,0.0071779233644040374
33,0.02748900000000001,0.031508445739746094,-0.19990449886029069,-1.678431084008209e-06,0.2289506980944673,-0.003551341811296038,0.23788798937673675,5.596623474074705,-0.9684202582175494,0.23797480115845426,5.593604893194341,-0.966282492790616,0.03471469795644437,1.6429150970595054,-0.06603591771913571,-0.409755346623192,-10.383576927729019,1.3820161389204808,-0.546299718313397,-13.897327017175096,2.4909646309246343,-0.5458550134095563,-13.88598679642937,2.4755358237219323,-0.8346326556432592,-23.783733682969963,2.288211323531476,-0.8336913719544605,-23.795348651442993,2.29040837315017
34,0.02832200000000001,0.032509803771972656,-0.19990182923994138,-1.8205969665211542e-06,0.22876961065331203,-0.0036457243490934945,0.24162874363759523,4.490701393587624,0.13675679389677708,0.24172581420649575,4.503016864395537,0.1234578321121863,0.03605810308314833,1.6127312445425679,-0.03643951995959886,-0.4169907295519077,-8.685933888014043,-0.3145177163092818,-0.5575692981314181,-13.528907344563144,2.141259294728438,-0.5571139805301025,-13.516167011459984,2.12432657566259,-0.8529579355433081,-21.9991355342724,0.5170757116834173,-0.8520285283738691,-22.013393060514524,0.5220340536267933
35,0.02915500000000001,0.032509803771972656,-0.1998986396511086,-1.9533206683997013e-06,0.2285720527457606,-0.0037386938357673385,0.24550507101633365,4.65345423618056,-0.028096808247713045,0.2455836892638025,4.631302589804021,-0.00674421728495217,0.037364098502841905,1.5678216322852017,0.00825673461047055,-0.4245421604553144,-9.065343221376574,0.06916128128537213,-0.5685550615791699,-13.188191413867754,1.8164195367461082,-0.5680902496607347,-13.176793674228376,1.8007367954418863,-0.8707414970546625,-21.348813338960923,-0.1252011306655041,-0.8698055083019796,-21.34091227864404,-0.14246722175158033
36,0.02998800000000001,0.032509803771972656,-0.19989592825591684,-2.089695008542662e-06,0.22836884022434123,-0.003828197728458412,0.24935864355861145,4.626137505735656,-0.01018954530125099,0.24944014516213736,4.629598917568874,-0.014478944834438012,0.03868453670440825,1.5851599058419525,-0.010430397921359566,-0.43202402689551805,-8.981832461228882,-0.00022154535976937062,-0.5792787759967146,-12.873606743751164,1.5244946034105185,-0.5788054993489619,-12.863445003874073,1.5099656619481194,-0.8886558691472141,-21.505848850602067,0.05792906330927283,-0.8877350034625031,-21.524003794145905,0.06687017571140963
37,0.03082100000000001,0.032509803771972656,-0.19989324259877084,-2.2281918141923975e-06,0.22815857209814594,-0.003915487749961692,0.2532070730921848,4.619963425658274,-0.013480551730601475,0.2532834084443657,4.613761443251277,-0.008054993393046939,0.039999308337718927,1.5783573028939704,-0.004934066014039812,-0.4395063479127803,-8.982378171983504,0.014606558217740706,-0.5897589973947793,-12.581298196956473,1.2525444435197828,-0.5892783629810043,-12.572465344588819,1.2392732609824877,-0.9065078545445904,-21.43095485879513,0.008743688355226542,-0.9055930132331763,-21.4381869996077,0.0068222107009552335
38,0.03165400000000001,0.032509803771972656,-0.19989066484642565,-2.3688710379416785e-06,0.22794127746452444,-0.004002839962413352,0.25704667225871564,4.609362744934959,-0.9298203281327827,0.25712074470723223,4.606646173909418,-0.9278589993431737,0.041313870179004585,1.5781054517234772,-0.12665280059236855,-0.44697410954135924,-8.964899914260403,1.2962383830092898,-0.6000120996487837,-12.308646163270533,2.142953757489911,-0.5995252759785189,-12.301216083450838,2.1310405026731907,-0.9243494768766939,-21.418514204205874,2.060206342909053,-0.9234437375107246,-21.429440909421796,2.062070367621766
39,0.03248700000000001,0.032509803771972656,-0.19988817049247626,-2.5117566753359073e-06,0.22771697503999153,-0.004089309246196903,0.26000245184729603,3.5483548482357823,0.13064898150959148,0.26008324508232683,3.556423019321273,0.12175826144010249,0.04253809162809489,1.4696536003485061,-0.01860171841585624,-0.45311360284223956,-7.370340097095188,-0.29746731849685726,-0.6099936451710296,-11.982647685769427,1.832326908134574,-0.6094993349979798,-11.973660287468082,1.8187839188842418,-0.94072523379956,-19.658771816165718,0.3114102869766846,-0.9398307038580493,-19.67222850819293,0.3159163616871643
40,0.03332000000000001,0.032509803771972656,-0.19988525955166275,-2.641942826504787e-06,0.2274768107259639,-0.0041730912800087725,0.26308705968602947,3.703010610724437,-0.025833650537395725,0.26315361238264,3.68591512642641,-0.009418408722089211,0.0437428796777112,1.4463241892152574,0.004521257513673618,-0.4595543473346299,-7.731986185342582,0.06804539732470682,-0.6197239346095409,-11.68101973410721,1.5435580237807773,-0.6192231345216533,-11.673228719896128,1.5311489685482211,-0.9567768974856463,-19.269704305025627,-0.06995182442341408,-0.9558780100544743,-19.264473224999946,-0.08417712772055519
41,0.03415300000000001,0.034509897232055664,-0.19988273087027006,-2.7753089853144574e-06,0.2272309892905424,-0.004254607797739328,0.2661504803484031,3.677575825178441,-0.009237229250706802,0.26621878917945313,3.6796840297876456,-0.012043334531783523,0.044957534171400894,1.4581686598915935,-0.008793503442334039,-0.46592584014032795,-7.648850907200522,-0.0020274817904341047,-0.6292223208167639,-11.402624498466947,1.284012151729732,-0.6287159040329148,-11.395881766220176,1.2725974394763568,-0.9729010233498359,-19.356693714513316,0.04050413044537171,-0.9720155189578265,-19.372759787937852,0.04770978403724935
42,0.03498600000000001,0.1293184757232666,-0.1998802289283254,-2.9097385863517913e-06,0.22697816687120934,-0.004334441648236353,0.2692089080253237,3.6715818450427555,-0.012149184397627688,0.26927290007447113,3.6663996338751343,-0.007621802894454244,0.04616753793291639,1.4525855480378125,-0.004653128440508136,-0.4722996016251792,-7.651574411586152,0.013941958975982494,-0.6385052689862674,-11.143995401564869,1.0422132040192393,-0.637994186267705,-11.138394039363959,1.03189542684247,-0.9889815095922365,-19.30430521296591,0.011390373813269239,-0.9881020042283565,-19.311506927407017,0.009791631816963298
43,0.03581900000000001,0.13033056259155273,-0.1998778177851453,-3.045445183438671e-06,0.22671838799255067,-0.004414390206382063,0.2722591229115874,3.661722552537387,-0.8923702829900029,0.27232103466347196,3.6592251968797416,-0.8905068021776452,0.04737698135086152,1.451912866680827,-0.14757178569118187,-0.47865924471693705,-7.634625560333551,1.2164770777014318,-0.6475873117561705,-10.902812448863234,1.82959619324097,-0.6470725677611472,-10.898417158994217,1.8204231254581804,-1.0050490614989056,-19.288777799122578,1.8534765022444928,-1.0041780256723736,-19.29894531094491,1.8549287269650891
44,0.03665200000000001,0.13033056259155273,-0.1998754779109852,-3.182427611658861e-06,0.22645166315341544,-0.004493701409306253,0.2744595541904559,2.641574164307988,0.12745213393731036,0.2745219626847,2.6421704936711636,0.12621686549364952,0.04847171554931564,1.314206720833275,-0.010155681064971236,-0.4837651056885112,-6.129484959872965,-0.288096591511137,-0.6564292252916507,-10.61454205940009,1.553745606629181,-0.6559095114526917,-10.608575860197478,1.5429541554513158,-1.019118194582837,-16.889715586952434,-0.5424244965950393,-1.0182810686486932,-16.930423741079874,-0.5100925575314981
45,0.03748500000000001,0.13033056259155273,-0.1998729085641592,-3.303723122608342e-06,0.22616960538626155,-0.004566282051819777,0.2767865030763775,2.7934560455240427,-0.026020894651359816,0.27684389234873985,2.787430569075429,-0.020584261876016696,0.0495554075066057,1.3009507290396811,0.002920691918921914,-0.489171685712783,-6.490492226016566,0.07648479640745776,-0.6650488865150579,-10.34773256111306,1.297133388072774,-0.6645251006621657,-10.342844189044389,1.2873812682673962,-1.0337684571448609,-17.587350014434616,0.16418243899867813,-1.0329273280077893,-17.582544248614777,0.15096039919961557
46,0.03831800000000001,0.13033056259155273,-0.19987049403066812,-3.428884345460385e-06,0.22588190853127574,-0.004641128083536856,0.27909132660800556,2.7668949959520606,-0.007746731670976281,0.2791470717538312,2.764921254611423,-0.006345493309873662,0.05064672294930218,1.31010257226468,-0.007808019497156385,-0.4944978840627668,-6.393995618227832,-0.007973874902768574,-0.6734634736551004,-10.101545186125518,1.0664183144395596,-0.6729363720812931,-10.097564728844297,1.0575431475551231,-1.0482428363377885,-17.376205513718524,-0.026243030304578863,-1.0474125856320289,-17.3892648550296,-0.02149120458895526
47,0.03915100000000001,0.13033056259155273,-0.1998681359093847,-3.553931548876999e-06,0.2255872007326431,-0.004714585657004814,0.281391945535027,2.761847451406311,-0.011070867391331563,0.2814449547758914,2.7585630516929114,-0.008331712248436096,0.05173376878141345,1.3049769893292544,-0.004240832629732974,-0.4998328587636424,-6.404531453632193,0.014857604830945337,-0.6816875783539934,-9.872874788587074,0.8514497293413332,-0.6811579927610217,-9.869892772783434,0.8435503585530453,-1.0627447204832934,-17.409224664471783,0.02801785463286688,-1.0619207120830874,-17.416718428641563,0.027266500350920708
48,0.03998400000000001,0.13033056259155273,-0.19986584836889565,-3.6797023727274804e-06,0.22528560640348083,-0.004788054872354962,0.28368480824648684,2.7525362682590924,-0.8556519395083049,0.28373564316638167,2.7499260390039675,-0.8535657719159888,0.05282010400231413,1.3041239146466785,-0.16643226640115902,-0.5051524199867375,-6.386027878865645,1.1414578191262454,-0.6897340844143024,-9.659671140827086,1.5457418901971223,-0.6892028907973077,-9.657740739839088,1.538876699254624,-1.077216210125325,-17.372736665104227,1.6634892816106244,-1.0763997071187366,-17.381746741475535,1.6643293845099048
49,0.04081700000000001,0.13033056259155273,-0.1998636229046027,-3.806014060589252e-06,0.22497710605087318,-0.0048611393324420596,0.2851627505561315,1.774240467760673,0.12249894689777752,0.2852136409441781,1.7743070561782197,0.12190764149532252,0.053769794125058154,1.1400841809652176,-0.0025773716940276636,-0.5092955270151784,-4.973717921297646,-0.27047517083674744,-0.6975684718568651,-9.405026941851945,1.3009023310988947,-0.697034364043793,-9.401528507185274,1.2924421593271624,-1.0898936195829947,-15.218978940779893,-0.48727145540787564,-1.0891088584505868,-15.25708443199306,-0.45701854483673676
50,0.04165000000000001,0.13033056259155273,-0.1998611830093906,-3.915240842714304e-06,0.22465374067243862,-0.004927883144092862,0.2867616267859383,1.919419243465573,-0.02403408210108071,0.2868081907968614,1.9142255134252466,-0.01932190591500893,0.054715906672219164,1.1357893723421466,0.0015683737105437884,-0.5137206124762075,-5.312227444212487,0.07123110400898014,-0.7052064417185075,-9.169231526581552,1.0729473798962132,-0.7046702426539854,-9.166721020639098,1.065456419144409,-1.1030933188748633,-15.845977541258865,0.14794703071891835,-1.1023045845569133,-15.841207810716115,0.13528496176691274
51,0.042483000000000014,0.13033056259155273,-0.19985888005259775,-4.027954588467626e-06,0.22432470192823298,-0.0049968367088115105,0.2883397966035431,1.894561605768036,-0.006937839073126173,0.2883849082341641,1.8928180519840472,-0.005661411888903234,0.055667637159228435,1.1425335978502613,-0.00711388529758189,-0.518070711757007,-5.222208020167588,-0.007656125152510684,-0.712663219394158,-8.951713896339012,0.8677650757925914,-0.7121255944812156,-8.950002193553754,0.8610606519176267,-1.116134642571769,-15.655850776597548,-0.02340786154314367,-1.1153560333297454,-15.668005729690572,-0.019044018927357076
52,0.043316000000000014,0.13033056259155273,-0.19985662382589897,-4.1400401113921336e-06,0.22398869412248415,-0.005064636683427144,0.28991398543205926,1.8897825072222767,-0.010015364209649436,0.28995666760625266,1.8868659929034641,-0.007541778391313314,0.056615271506264955,1.1376162629490016,-0.004129000015654791,-0.5224290310723647,-5.232076008832754,0.0136035822360272,-0.7199517272904766,-8.749709359326063,0.6765419295574817,-0.7194134089258997,-8.748876884374681,0.6707117870673822,-1.1292006289869563,-15.685457881377253,0.025465512167365922,-1.1284277251258912,-15.692307078206118,0.024580629564313394
53,0.044149000000000015,0.13033056259155273,-0.1998544281867609,-4.252351725816046e-06,0.22364583108479147,-0.005132544188519308,0.2914809300691663,1.8810859989280535,-0.8193364591998462,0.2915216881802697,1.8787761993001406,-0.8174499426345655,0.0575617898328225,1.1362765024700454,-0.2169756432463166,-0.5267730638863737,-5.214925346949589,1.0716427403531166,-0.7270833759326347,-8.561402931762357,1.2700228936712739,-0.7265451329731477,-8.561493454079269,1.2650936714949166,-1.1422391256929638,-15.652457030021042,1.4980721250623281,-1.1414731411553698,-15.66076354079059,1.498714104726513
54,0.044982000000000015,0.13033056259155273,-0.19985228571810668,-4.364714417623819e-06,0.22329609504995424,-0.005200178779153764,0.29226849013184547,0.9454502553171377,0.11630894838715733,0.2923078677510849,0.9437930021791513,0.11755662691616431,0.05831727639951489,0.9069466586943408,0.012343228713496801,-0.5300124784207589,-3.888852982455247,-0.2542269532275785,-0.7340288002547817,-8.33784432430611,1.0538148412511492,-0.7334892998365922,-8.336334770041312,1.0472749559733925,-1.153661559160883,-13.712405123552335,-0.43914904194825466,-1.1529251610131728,-13.747922998562968,-0.410999856908413
55,0.045815000000000015,0.13033056259155273,-0.1998499673619662,-4.4588744345246835e-06,0.22293193949626708,-0.005261860217051115,0.2931700267536286,1.0822768568824526,-0.021647754793108764,0.2932061882041942,1.078415910095173,-0.018164317393056795,0.05908428698340626,0.9207810130748784,-0.001617337654921877,-0.5335166480056585,-4.2066861763499865,0.06645646208595091,-0.7408015714569243,-8.130577673640502,0.8521722144216202,-0.7402616070467196,-8.130020660417054,0.8465822183323974,-1.1655549114931596,-14.277733892288845,0.13371965488995396,-1.164814653032768,-14.273099663379758,0.12167811011899454
56,0.046648000000000016,0.13033056259155273,-0.19984776583184244,-4.5563255115901005e-06,0.22256205689569908,-0.00532549942809398,0.29405279804076656,1.0597494443432953,-0.006375283767103834,0.29408752693385604,1.0580296874691941,-0.005018801037453002,0.05985306159445515,0.9228986927357677,-0.005975804629488934,-0.5369507277621473,-4.122544725676889,-0.007400176465896191,-0.7474150653533872,-7.939368423124768,0.6703884586614521,-0.7468752393462628,-7.9395345732810725,0.6655247754973317,-1.1773052226950593,-14.106015848619004,-0.019635529893622383,-1.1765743784042817,-14.117317372765296,-0.015647199639598153
57,0.047481000000000016,0.13033056259155273,-0.19984560348747196,-4.652806002294064e-06,0.2221852379469502,-0.005388266592796911,0.2949316192415392,1.0550074439047101,-0.00899078090455463,0.29496424824966244,1.0524865735971423,-0.00681227608574031,0.060618426036837335,0.9188048527997381,-0.004135839939120575,-0.5403925517370649,-4.131841506503812,0.012441940456361378,-0.7538806101589322,-7.761758470042017,0.5008459019859288,-0.7533415847066716,-7.76271952029864,0.4967868849769663,-1.1890763284631873,-14.130979313479099,0.024174489848434177,-1.188350704443301,-14.13724614528139,0.023180310809193472
58,0.04831400000000002,0.13132357597351074,-0.19984349330368303,-4.7491891570944905e-06,0.22180158214398815,-0.005451181497746226,0.2958037448812858,1.0469695555181278,-0.7830993974115004,0.2958346664242317,1.04491977739404,-0.7813742474947833,0.06138219444522013,0.9168888455976004,-0.2618556675552581,-0.5438211319602491,-4.115942644878931,1.0055839217507927,-0.7602082141723849,-7.596163281455865,1.0040799428373828,-0.7596706773497504,-7.597950351835272,1.0008362744901704,-1.200821475567664,-14.099816451952735,1.5156913242685124,-1.2001022344364136,-14.107478983328406,1.5161570269109719
59,0.04914700000000002,0.13232922554016113,-0.19984142889203457,-4.8453022565531554e-06,0.2214110749702374,-0.005513919163064738,0.29593148544122144,0.15335001192756048,0.11067345501140158,0.29595862808648343,0.14881352011014448,0.11492301740431943,0.061906443712445365,0.6293508610146822,0.025839593533568475,-0.5462115486683644,-2.8696479089019533,-0.2406795507988726,-0.7663730666098909,-7.400783238302462,0.8137603724108167,-0.7658356815920618,-7.400965476964513,0.8089151509005035,-1.2109341863156027,-12.140108941102739,-0.4417535819014189,-1.2102412688122341,-12.171709934958571,-0.41708620015815345
60,0.04998000000000002,0.13232922554016113,-0.19983925938929298,-4.9223047690618445e-06,0.22100656543246336,-0.005570100706819853,0.29616695810111204,0.28268026397431134,-0.01958080920256422,0.29619245206927775,0.2807010597770744,-0.017872137852828707,0.06245589164719555,0.6596013622451151,-0.004505617866205708,-0.5488527383701837,-3.170695920551274,0.06290745421479871,-0.7723867729340612,-7.219335323133568,0.6358614688354038,-0.7718503158394958,-7.220449276631395,0.631959001899703,-1.2215203068254332,-12.708427982989832,0.13356216228466167,-1.2208243217308552,-12.704745400505498,0.12291527211749065
61,0.05081300000000002,0.13232922554016113,-0.19983718177405924,-5.002589650964829e-06,0.22059627921402145,-0.005628053094327431,0.29638534724362764,0.26217183975462227,-0.0058353606912133205,0.2964092539421591,0.26026635399920783,-0.00418461444073992,0.06300361884454427,0.6575356510788879,-0.004932705961203654,-0.5514273976502017,-3.0908274670084075,-0.007474193488316683,-0.778260997034856,-7.051889676824375,0.47514903846002854,-0.7777260216688499,-7.053668462609858,0.4719276720490113,-1.2319637249939022,-12.537116648822318,-0.020642130981596285,-1.231276270934304,-12.547357987333495,-0.0172798055390202
62,0.05164600000000002,0.13232922554016113,-0.19983513814105672,-5.081673937819649e-06,0.22017907514034016,-0.005685395531610403,0.29659986569292796,0.25752514922004627,-0.00806078145963357,0.2966220614197289,0.25547116154836164,-0.006244502662696105,0.06354857548677043,0.6542096545332113,-0.004131220012756592,-0.5540097464992806,-3.100058642351635,0.011507967928775287,-0.784005591408498,-6.896271757073307,0.3250806825514263,-0.7834727039768702,-6.898778280936824,0.32260937689853697,-1.242429109802539,-12.563487165230377,0.02333891467320859,-1.2417465508941539,-12.569363697298966,0.02238536954626147
63,0.05247900000000002,0.13232922554016113,-0.19983313880592457,-5.160483317936088e-06,0.21975504462586512,-0.005742901256305739,0.2968082095013018,0.2501126150946947,-0.746671246283755,0.2968289006805338,0.2483064355401117,-0.7450864758593788,0.06409151927882643,0.6517932677743208,-0.3013036514992771,-0.5565796987259034,-3.0851767426444345,0.9426758055878657,-0.7896292676183537,-6.751111896585466,0.7474871051406069,-0.7890990898171026,-6.754364754180621,0.7457525972425372,-1.2528695402854977,-12.533529991546883,1.4298524460309485,-1.2521928712262114,-12.540600638724598,1.4301523813512418
64,0.05331200000000002,0.13232922554016113,-0.19983117860394767,-5.238832490365179e-06,0.21932417473766386,-0.005800317066886765,0.2963074847623976,-0.6011101307373461,0.10483182012733494,0.29632301435256864,-0.6073065161646966,0.11085833322797667,0.0643521693665737,0.3129052674036779,0.037902903818925165,-0.5581758309920105,-1.9161251693962615,-0.22648694741616127,-0.795111254771237,-6.5810169902560265,0.5803156904460447,-0.7945824581604252,-6.5826750820197875,0.5770016719572852,-1.2617706813104457,-10.685643487332532,-0.41606596677354624,-1.2611181351600518,-10.71460256163314,-0.39363639088049984
65,0.05414500000000002,0.13232922554016113,-0.19982915331308412,-5.2978454089018545e-06,0.2188796847956225,-0.005851354576057102,0.2959081385674712,-0.47940719679035804,-0.017604578680382454,0.2959230963021744,-0.48009369795227613,-0.017082310377605714,0.06465027610106908,0.3578712298864057,-0.007119070183724374,-0.5600078714503677,-2.1993282813411086,0.058964066695331274,-0.800461373598371,-6.422711677231667,0.42361518579906954,-0.799934721356335,-6.425285949471611,0.42124023481056394,-1.2711176764928462,-11.220882571909344,0.12559975078765007,-1.2704624216965452,-11.217630896150592,0.11579147452319782
66,0.05497800000000002,0.13232922554016113,-0.19982720290550746,-5.360117821942854e-06,0.2184293592253248,-0.005903919459640922,0.2954933547316581,-0.49793977888728197,-0.005357513782090539,0.29550671918059956,-0.4998524868845431,-0.0034521528898578957,0.064943513035658,0.35202513155932846,-0.003969882540617559,-0.5617774381830817,-2.124329811181317,-0.007471013457630793,-0.8056897276956969,-6.276535531003482,0.28173180974586876,-0.8051657339965442,-6.279727059074604,0.27995380131145264,-1.280330562263937,-11.059886880060725,-0.01807713671155131,-1.2796831930573573,-11.069353374324395,-0.01919544142038898
67,0.05581100000000002,0.13232922554016113,-0.19982528119100137,-5.421111783303182e-06,0.21797212762017812,-0.005956094815901105,0.29507477477195443,-0.5024969504245812,-0.0072002884545332435,0.29508687674327294,-0.5040125298038467,-0.005534712246711204,0.06523458685501533,0.3494283545706269,-0.004120210808961716,-0.5635545457002095,-2.1333823735027306,0.010405685511495344,-0.8108048230121631,-6.140570608002627,0.14903136845043785,-0.810284049774679,-6.1444367084452125,0.14791194732341695,-1.2895627700954928,-11.083082630919316,0.02295732860648325,-1.2889243200104028,-11.09378985959834,0.01895221664410318
68,0.05664400000000002,0.13232922554016113,-0.19982339809634939,-5.481765940663447e-06,0.21750807190106963,-0.006008419472837942,0.2946505225544356,-0.5093063835760531,-0.7100736943951275,0.2946615736032384,-0.5105679952394957,-0.6911241150876604,0.06552328488138355,0.3465762621467201,-0.33549481367193323,-0.5653202900641271,-2.119741133154438,0.8608847814144456,-0.8158141884640575,-6.013643999873244,0.50569350817286,-0.8152972056810885,-6.01819436543757,0.49928972164586516,-1.2987705217267338,-11.053723446868064,1.5189900141191104,-1.2981451337224792,-11.069404216178137,1.0096637779238256
69,0.05747700000000002,0.13232922554016113,-0.19982154910055885,-5.541891005998014e-06,0.21703718163504213,-0.006060700253254776,0.29355155377679143,-1.3192902492726977,0.10031411327117934,0.29357160118720776,-1.3084902953549133,0.10725688253864007,0.06549233695719123,-0.03715236997878141,0.048706930632019085,-0.5661925138760605,-1.0470874092838618,-0.2119936428603617,-0.8207002925557745,-5.86567117853182,0.3586952562893686,-0.820186108798346,-5.869031353250228,0.3510810794911059,-1.3063477232542497,-9.096280345157272,-0.43716443617263945,-1.3062924534870155,-9.780695995842011,-0.2762713415068472
70,0.05831000000000002,0.13232922554016113,-0.19981977049205796,-5.58338460558853e-06,0.21655307075966165,-0.00610325411213924,0.29254915658235553,-1.2033579765136677,-0.016179933350270348,0.29258500827939204,-1.1843852434762543,-0.01742326691128493,0.06550982365266986,0.02099243154697871,-0.009449104911999729,-0.5672864396801207,-1.3132362593760112,0.056147526748824506,-0.8254714022183827,-5.727622644187506,0.22047134711189886,-0.824961042292157,-5.732213077804378,0.2140774778433745,-1.3143925878467795,-9.65770059127229,0.13022109201156118,-1.314733775573207,-10.133639959413578,0.08238574618672656
71,0.05914300000000002,0.13232922554016113,-0.1998180317799078,-5.6280509699532524e-06,0.21606308484201783,-0.006147439009897701,0.2915324695113917,-1.2205126902326757,-0.004836866892150571,0.29158126578417315,-1.2049729834560334,-0.002322184108792369,0.06551965550507188,0.011802944060052003,-0.003116791149767926,-0.5683205929239329,-1.2414804847685037,-0.007435436302759779,-0.8301362573444325,-5.600066177730921,0.09485091724323724,-0.8296304334345601,-5.6055115755139,0.08936383409473825,-1.3222985898471167,-9.490998799924546,-0.01831531390320995,-1.3230871781372873,-10.028094314622152,-0.01420890830633148
72,0.05997600000000002,0.13232922554016113,-0.19981632071843708,-5.6714675655527e-06,0.2155661880484237,-0.006191457401738304,0.2905121813002906,-1.2248357876364067,-0.006444816649483154,0.29057509929643555,-1.2078829384604919,-0.005021132105138326,0.06552788557731544,0.00988003870775612,-0.0041192632807319825,-0.569362210693113,-1.2504414996159219,0.009968373038450995,-0.8347021934633867,-5.48131586909268,-0.022861076382743928,-0.8342040686899652,-5.490558529898085,-0.02446586838357212,-1.3302241922561604,-9.51452870233349,0.023967584057061675,-1.3314556129041246,-10.046140176275236,0.01305691297520939
73,0.06080900000000002,0.13232922554016113,-0.19981464267062446,-5.71455042103217e-06,0.21506246830212167,-0.006235553175577274,0.2894855524549908,-1.2324475933971157,-0.670749086917416,0.28956374299721926,-1.2141132043412846,-0.6321439369875326,0.06553183319438319,0.004739036095738221,-0.3628103570998588,-0.5703928474967069,-1.237259067939932,0.8422804298686819,-0.8392925480415332,-5.5106297456740645,0.3997431367722055,-0.8388037544123603,-5.521831599513877,0.4069487589371332,-1.33812431767548,-9.48394408081577,1.6901927508591545,-1.339810014250903,-10.029293333467528,0.5137781349704968
74,0.06164200000000002,0.13232922554016113,-0.19981297652546673,-5.757823036157695e-06,0.21455186299093862,-0.0062793267661084996,0.2878211890537113,-1.9980352956537064,0.09534832007989513,0.2879412619719843,-1.9477563328150826,0.10205343386043497,0.06518607045115926,-0.41508132439847606,0.05762455406577022,-0.5705434938512914,-0.18084796468721676,-0.21459759303619677,-0.8437593509519205,-5.362308415831059,0.25146878985579035,-0.8432777778078177,-5.370976465134856,0.2562208490961384,-1.3442148587333285,-7.311573898977663,-0.4817750489395767,-1.3476189945976904,-9.374526226635494,-0.13736355643357845
75,0.062475000000000024,0.13432669639587402,-0.19981149955691704,-5.783031130827684e-06,0.21402849005358657,-0.006309436320943118,0.2862484297579998,-1.8880663814063625,-0.015026930482408551,0.28641795907349527,-1.8286949561692782,-0.01744548167865978,0.06489802942663471,-0.3457875444472415,-0.011631892401043176,-0.5709198189664697,-0.4517708465524857,0.05811515678284532,-0.8481117064913725,-5.2249166139880066,0.1129794972299758,-0.8476373844704013,-5.233621443677785,0.1178488848483581,-1.3508199466118789,-7.929277165126538,0.14147606745569075,-1.355573970172994,-9.54979060660711,0.04298619125115932
76,0.06330800000000002,0.13532352447509766,-0.19981003417280085,-5.811348676748838e-06,0.21349919109709337,-0.006341539622887763,0.28466241148853627,-1.9039835167629076,-0.004465060077031402,0.2848772224768319,-1.8496237655022687,-0.002350067132144029,0.06459991021217146,-0.3578862118406383,-0.00250648396844394,-0.5712340382886801,-0.37721407228136294,-0.009076668440611751,-0.8523590544507681,-5.09885709411241,-0.01260816139984744,-0.8518918307185979,-5.107378449215656,-0.007856179569312616,-1.3572743097916982,-7.748335149843141,-0.030773120225653372,-1.3634830248000986,-9.494663417892605,0.011863664968803977
77,0.06414100000000002,0.13532352447509766,-0.1998085969468826,-5.838407786468898e-06,0.21296298014728923,-0.006373604333649054,0.2830719280923621,-1.9093438129341933,-0.004572602787014657,0.2833340721593417,-1.8525213895440371,-0.005434045745157712,0.06429911747835439,-0.36109571886803654,-0.0023397684788682427,-0.571557697404338,-0.38854635733238563,0.009906675814814164,-0.8566198250844209,-5.114970748682876,0.004192627812090288,-0.8561546424583102,-5.117421056077207,0.0028886581979850057,-1.3637614376450313,-7.78766849139639,0.01772463824965609,-1.371379335977917,-9.47936515944569,0.02104221689313457
78,0.06497400000000002,0.13532352447509766,-0.1998071666241409,-5.86580464602377e-06,0.21241989515832013,-0.006405608009462618,0.28147711721784807,-1.9145388649627886,-0.6337029036841088,0.28178534917279274,-1.8592112683660698,-0.6940503491903222,0.06399612171300982,-0.36374041457930445,-0.38778691624330786,-0.5718705516985076,-0.3755753831568572,0.7713276016843802,-0.8608762897355908,-5.109801502004675,0.32385406846267184,-0.8604142861280081,-5.113617850777794,0.3223397876383458,-1.3702296868614778,-7.7650050617605615,0.5798071786434957,-1.379253115148321,-9.452315930857136,2.416574206450103
79,0.06580700000000002,0.13532352447509766,-0.1998057440398183,-5.893224026976367e-06,0.2118699379945361,-0.006437748324070076,0.2792860691262773,-2.630309833818461,0.08260587324426116,0.2795784603100529,-2.6493263658341677,0.09672053107548961,0.06331662965075517,-0.8157167614101435,0.06493363233408445,-0.5713985167903112,0.566668557258625,-0.17122221976524243,-0.8650035432706542,-4.954686116522719,0.16809064663629303,-0.8645436058681312,-4.957166554769562,0.16525580253996974,-1.3760618425160973,-7.001387340479459,-0.18119584770268293,-1.384554797678409,-6.3645648620505,-0.6726463384625903
80,0.06664000000000002,0.13532352447509766,-0.19980405154352965,-5.901562357233489e-06,0.21130722034056892,-0.006476950635888197,0.27717320370839305,-2.53645308269415,-0.011494896544218092,0.27746179104248,-2.5410195288990995,-0.011832719013533333,0.06270276044687917,-0.7369378197791101,-0.013757336134182174,-0.5711014857205612,0.356579915666259,0.04031057917744785,-0.8690121567809649,-4.812261116819588,0.02383121034121327,-0.8685551717640508,-4.815805397262545,0.022084417500773057,-1.3820904132318264,-7.237179730767233,0.0591753881311079,-1.3905727499490177,-7.224432497729715,0.19291451851577524
81,0.06747300000000002,0.13532352447509766,-0.19980246255756293,-5.913208897592273e-06,0.21073843424781324,-0.006515545054685548,0.2750498124613089,-2.549089132153839,-0.003758503169122962,0.2753340237529717,-2.5543424844036764,-0.003413581147834188,0.06207533238120518,-0.7532149647947033,-0.0005206447482754284,-0.5707622358122599,0.4072627950795464,-0.0036159070043144115,-0.872996035584391,-4.782567591147786,-0.005814869978986836,-0.8725428870793362,-4.787173247641516,-0.006463305351791293,-1.3880554621197683,-7.160923034744128,-0.004003397660205632,-1.3963849799101848,-6.977466940176756,-0.041069394760560485
82,0.06830600000000002,0.13532352447509766,-0.1998008725947407,-5.924222119283588e-06,0.2101627433109341,-0.006554076179376103,0.27292259311406275,-2.553684690571573,-0.004181769878594421,0.2732023583242376,-2.559022123330259,-0.0037564761844242067,0.06144732087419262,-0.7539153745649022,-0.002962800136020155,-0.5704261534006811,0.4034602780058111,0.007164324378687303,-0.8769860780120899,-4.789966899998696,0.001763937300065077,-0.8765374844997984,-4.7954350785859905,0.0020223202539877416,-1.3940249317176308,-7.166230009438655,0.01472777896105848,-1.4022408456170155,-7.029850788512113,0.02504153000245335
83,0.06913900000000002,0.2163374423980713,-0.1997992961089233,-5.9356741676704645e-06,0.20958016093108234,-0.006592737734536142,0.27079128650752465,-2.558591364391447,-0.5946907144580718,0.2710666954571965,-2.56382096883682,-0.5953066273323236,0.060816314575363184,-0.7575105628204504,-0.40727751028183545,-0.5700820554665319,0.4130827540807444,0.7156123218205848,-0.8809743247544878,-4.787811215363584,0.26383292103589073,-0.8805298658810068,-4.792774767357014,0.2641142973226114,-1.399978737855888,-7.147426336443261,1.1420089073156872,-1.4080698775511564,-6.997637375919618,1.165316960106825
84,0.06997200000000002,0.2163374423980713,-0.19979772944530072,-5.947302176898595e-06,0.20899070096255765,-0.0066314221434060705,0.2680980711821661,-3.2331516510906892,0.08051070689508966,0.2683590983305105,-3.250416718710661,0.09202590555786394,0.059786821118314355,-1.2358865030598216,0.07197068429995472,-0.5689972041010523,1.3023425756058449,-0.17415747493425893,-0.8848239494280472,-4.621398167538334,0.09619519409738886,-0.8843824049016072,-4.624896783433967,0.09503952406225236,-1.4047051290526538,-5.67393901172374,-0.33048499948806276,-1.4126592133627691,-5.509406736629959,-0.3218519017073569
85,0.07080500000000002,0.2163374423980713,-0.1997962255932548,-5.941907215041493e-06,0.20838901448598457,-0.006665148198951435,0.26548120726019003,-3.1414933036927484,-0.01127001988275722,0.26573969864549674,-3.1445374369913717,-0.0139985675618014,0.05883009767900838,-1.1485275381824414,-0.015243726412435071,-0.5680936593097665,1.0846876245926718,0.04480056659111109,-0.8885685772443835,-4.495351520211666,-0.03212610091476353,-0.8881345739894694,-4.504404667301505,-0.027653080734904245,-1.409785365396599,-6.09872310197514,0.0988309601509001,-1.4175910960358593,-5.920627458691734,0.09385606644467037
86,0.07163800000000002,0.2163374423980713,-0.19979475519506154,-5.939750583770347e-06,0.2077812386067515,-0.006699513588895637,0.262853364574819,-3.1546730916819206,-0.0025380307576934324,0.2631063529863956,-3.161279302642424,-0.0016971959226860234,0.05785735952248064,-1.1677528889888864,0.0009085894484763268,-0.567142427944521,1.1419344120594388,-0.0063366932053621206,-0.8923475749847191,-4.5366119331759105,0.008894950521408207,-0.8919161451477551,-4.539701270451061,0.0074300884401630185,-1.414760138356044,-5.972116397893129,-0.015578277547616537,-1.4224228106995798,-5.800377747563656,-0.01420264704753027
87,0.07247100000000002,0.21733736991882324,-0.19979328564588464,-5.937495940493891e-06,0.20716650046166052,-0.00673381129286099,0.26022293211155734,-3.1577820687414797,-0.004007124048059696,0.2604709433381104,-3.1637570807745967,-0.0037954255145680182,0.05688560393803127,-1.166573330671511,-0.003472763911369317,-0.5661974012398381,1.1344858399554336,0.007469484966736717,-0.8961170720336996,-4.525206541393173,-0.002785246783325368,-0.8956897611209559,-4.530151228332286,-0.0023533256312036066,-1.419751561458616,-5.992104564912527,0.017080907668269862,-1.4272695131220607,-5.818370255079194,0.016437264974563437
88,0.07330400000000002,0.21733736991882324,-0.19979182721076824,-5.935731003684465e-06,0.2065448792098956,-0.00676830778259573,0.25758848338960283,-3.1626035077485186,-0.5549092330052298,0.2578314454083347,-3.1686649817235457,-0.5545530163887237,0.0559101773229978,-1.1709803301722321,-0.4219992355691907,-0.5652439878229406,1.144553921845695,0.6602579379250237,-0.8998895322598252,-4.528763776861377,0.21074888420754534,-0.8994658507818635,-4.533120841425631,0.2108095561940626,-1.4247248023671752,-5.970277201151452,1.0914499697744064,-1.4320985435988474,-5.797155434317619,1.0895611871733095
89,0.07413700000000002,0.21733736991882324,-0.19979037771485986,-5.934299959001625e-06,0.20591636467109953,-0.006802864529661229,0.2544304682577158,-3.791134612109283,0.07431962769186251,0.25465853356824314,-3.8090178152359657,0.08659883131770474,0.054519555634567604,-1.6694137916328908,0.07742109188880607,-0.5636066264398746,1.9656199076423375,-0.16137378858735651,-0.9035112798136687,-4.34783619909192,0.02806900596472306,-0.903090113970241,-4.350856168520471,0.026817983488077957,-1.4285256488772908,-4.562840948518191,-0.3152210305869314,-1.4357683704267519,-4.405554415251477,-0.3011611833320411
90,0.07497000000000002,0.21833467483520508,-0.19978902546852478,-5.91703795372166e-06,0.20527596591927305,-0.006832560747990537,0.25134200295335496,-3.7076414218017186,-0.009171304554635773,0.2515687240316501,-3.7092551459700256,-0.013195846789211485,0.05320653392114006,-1.5762565587365502,-0.015525274760222932,-0.5621373417291406,1.7638471917573775,0.04151395330518559,-0.9071000223673042,-4.308214350102587,-0.01363519350005471,-0.9066869943846407,-4.31798369075596,-0.008055221817034885,-1.4326638239293543,-4.967797181348673,0.09387373993495363,-1.439758716725294,-4.790331690927095,0.08769993561074552
91,0.07580300000000002,0.21833467483520508,-0.19978768746291273,-5.903427705622843e-06,0.20462938127196395,-0.006862548984851728,0.24824474495935225,-3.7181968715518643,-0.0026290516634686067,0.24846571254865898,-3.7251038211177785,-0.0013465799343495566,0.051877311311118106,-1.5957054141920257,0.0008414663896261776,-0.560623825447821,1.8169463161100856,-0.006065322659204675,-0.9107034782304818,-4.325877386767811,0.0034024955288105563,-0.910292333018959,-4.328137616228318,0.0014925375254604134,-1.4367018028983984,-4.847513768360361,-0.014988907581783284,-1.4436554444963765,-4.677944503100156,-0.013367940778166165
92,0.07663600000000002,0.21833467483520508,-0.19978635192636535,-5.8898189607577685e-06,0.20397583933332467,-0.006892766225096651,0.24514469819801754,-3.721544731494259,-0.003419802842590136,0.2453610093917566,-3.7271346421397302,-0.003451404348463083,0.05054885286984465,-1.5947880447460427,-0.0032947371136852477,-0.5591162437938157,1.80982191357175,0.006819363136604251,-0.914303181479093,-4.321372447312281,-0.0017163811056166711,-0.9138960704519411,-4.32621540574092,-0.0010029104123259192,-1.4407557527494395,-4.866686495847545,0.016073790658101217,-1.4475662610446764,-4.694857801080376,0.015310848570867286
93,0.07746900000000002,0.21833467483520508,-0.1997850260732458,-5.876891838546321e-06,0.20331539792709546,-0.006923127088571828,0.24204116163527623,-3.72573416895715,-0.5143405313468072,0.24225256170571363,-3.7316298752016377,-0.5135673123894691,0.04921682296587448,-1.5990755149702018,-0.4324506003774137,-0.5576009743767899,1.8190509207993506,0.6069024149101099,-0.9179046362053451,-4.3234750615272075,0.16291182112614422,-0.9175008489991507,-4.3274652427487155,0.16281974307122216,-1.4447925494098273,-4.846094430237462,1.0388550344253233,-1.4514605969876038,-4.675073160777005,1.0247674222819656
94,0.07830200000000002,0.21833467483520508,-0.19978370805752063,-5.864466339006384e-06,0.2026480524099916,-0.006953621506255421,0.2384529581593486,-4.307567197992337,0.06823545371279183,0.238649607965125,-4.325274598545787,0.08092427135547786,0.047457075590155794,-2.112541867609463,0.0821098075489715,-0.5554566484422288,2.5742208097973034,-0.1488746336359279,-0.9213528257213404,-4.139483212479341,-0.023209102426778427,-0.9209393544897415,-4.127857731801654,-0.039013324750142075,-1.4477139991142887,-3.5071425023547165,-0.299531924170517,-1.4542645510783603,-3.366091345445906,-0.2835175262557543
95,0.07913500000000002,0.21833467483520508,-0.19978251395472021,-5.837609924173217e-06,0.20196916088136668,-0.00697942902060951,0.2349279252049878,-4.231732238128249,-0.007488255342551597,0.23512443186518145,-4.231904081564894,-0.012377161631069722,0.04577934265915098,-2.0140851512662823,-0.01607299795422426,-0.5534674522636527,2.3879906105355455,0.03829970363759472,-0.9248222816400192,-4.1650131076576375,0.0004043822732981983,-0.9244208074825367,-4.179415357497231,0.010748219093177136,-1.4509558196854013,-3.8917413818878823,0.08883563331606847,-1.457370245702812,-3.7283248792936328,0.08243027972230088
96,0.07996800000000003,0.21933531761169434,-0.19978132012974967,-5.8146966443051865e-06,0.20128399512210338,-0.007005233976447931,0.2313958206402879,-4.240221566266345,-0.002582442128785001,0.23158684395552456,-4.246804213273589,-0.0010481582073538775,0.044084864511684425,-2.0341874519406375,0.0009734078316471217,-0.5514374242866374,2.4370083757685457,-0.005751086427695951,-0.92829148687188,-4.1647121630982165,-0.0008371910836650898,-0.9278906372113571,-4.165461859328198,-0.004138104830558431,-1.4541027802585345,-3.777863833293173,-0.014403435063681247,-1.4603879272774998,-3.6226669564079956,-0.012611645338204358
97,0.08080100000000003,0.21933531761169434,-0.1997801299623333,-5.791938120261579e-06,0.2005918721381841,-0.007031495877226717,0.2278608935863759,-4.2436099086578825,-0.00289819208828479,0.22804790264736058,-4.248428941373329,-0.0031297812235636657,0.04239116142977827,-2.0332570010878173,-0.0031588913522173634,-0.5494130296622414,2.430245647534357,0.006210058544622976,-0.9317613558990678,-4.165509036239866,-0.0009356492970438168,-0.9313648833343781,-4.170763653086412,0.0003137340326153648,-1.4572650251666253,-3.796212374658715,0.01504539334931021,-1.463418883578881,-3.6386030028587126,0.014380665480069776
98,0.08163400000000003,0.21933531761169434,-0.19977894819337388,-5.7700693352936725e-06,0.1998928335776359,-0.007057869327659793,0.22432294817859863,-4.247233382685794,-0.4728506863317834,0.22450556107928196,-4.252510886048744,-0.47247855151159607,0.04069393985995669,-2.0374808761363576,-0.438531533302104,-0.5473816184774263,2.4386688893337847,0.5558878391355353,-0.9352320642565634,-4.166516635648953,0.12126760967126082,-0.9348387699732709,-4.170332099511181,0.1212610022649574,-1.4604111558326773,-3.7768675462811108,0.9823138661714856,-1.46643434255064,-3.619998765617101,0.9777912208622723
99,0.08246700000000003,0.21933531761169434,-0.19977777331375543,-5.748894046012573e-06,0.19918687886050132,-0.007084438550150571,0.2203396869231931,-4.781826236981409,0.06252141762772995,0.22050789346232313,-4.7991207886660545,0.07501226307771325,0.03856038049474488,-2.5612957565567918,0.08648006162034245,-0.5447737963483358,3.1306388104327114,-0.1367179402722043,-0.9385925899038006,-4.0342444744744785,-0.012993316657748055,-0.9381753002696335,-4.005438531047583,-0.04585967936026436,-1.4625030416285245,-2.5112674620014275,-0.282889522183182,-1.4684092655505485,-2.3708559422671445,-0.27085567113485576
100,0.08330000000000003,0.21933531761169434,-0.1997767357244681,-5.715042537598317e-06,0.19846970189961588,-0.007106481134201306,0.21641420621001198,-4.712461840553581,-0.006641534558444351,0.21658245495269546,-4.712411176023605,-0.011538728666049325,0.036513775177428015,-2.456909144438012,-0.01757937647537451,-0.5423084826655917,2.959560243390223,0.03514985292493589,-0.9419636323451879,-4.046869677535744,-0.0022517108095163607,-0.9415619838185629,-4.06564651732229,0.012622726278487928,-1.464897345156954,-2.8743139596994025,0.08357784876562979,-1.4706724591758624,-2.7169191180238075,0.07858614222869065
101,0.08413300000000003,0.21933531761169434,-0.19977569487008767,-5.685041803540958e-06,0.19774619065883317,-0.007128495947290985,0.21248242586561586,-4.720024423044548,-0.0019346361544360646,0.21264545360591963,-4.726292132984179,-0.0008646446832582533,0.03444868896007744,-2.479095098860236,0.001881090975846593,-0.53980569219895,3.004550380122043,-0.005448515772247919,-0.9453371472738303,-4.049837849510697,-0.006111708252073633,-0.9449350546787191,-4.049304754088965,-0.0034369915748271307,-1.4672023423812015,-2.7671035105011774,-0.013699019155979819,-1.4728517270441186,-2.616167909070961,-0.012342101741966705
102,0.08496600000000003,0.21933531761169434,-0.1997746577165353,-5.6554540001034866e-06,0.19701571135139306,-0.0071510133363021505,0.20854831929864373,-4.722817007169419,-0.0021045332755398882,0.20870730827286268,-4.727665465854694,-0.002831852149388192,0.032385098285500485,-2.4772997293841006,-0.002789671711633454,-0.5373082524280458,2.998126975875433,0.005585953783961761,-0.9487167641141969,-4.057163073669311,-0.005760774747084696,-0.9483118330829909,-4.053755587361161,0.001422322789638164,-1.4695218053450978,-2.7844693444133624,0.014053755849799288,-1.475043975373264,-2.631750695252654,0.013497063240722973
103,0.08579900000000003,0.21933531761169434,-0.19977362550220262,-5.626995108477282e-06,0.19627830126024556,-0.007173722773041092,0.20461185235938112,-4.725650587350087,-0.39238798494430016,0.20476608137413305,-4.731364824405331,-0.4377638832996879,0.030318155269590454,-2.481324148751538,-0.40645955995835004,-0.5348044918471975,3.0057149830112264,0.4999167566254916,-0.9521021923908002,-4.064139587759086,-0.6271214970187005,-0.9516871037807096,-4.051945615508581,0.26808656826498156,-1.471826146677692,-2.766316125563364,0.9322435232554811,-1.4772216607105735,-2.6142681120160707,0.9169528586344198
104,0.08663200000000003,0.2223372459411621,-0.19977259733932046,-5.599472454288318e-06,0.19553396126286116,-0.007196723417216041,0.20029508529975362,-5.182193348892569,0.06501890027876128,0.2003995909023461,-5.241885320272455,0.07369952361809051,0.027828291142201866,-2.9890325658926633,0.1026361984995469,-0.5317820627798064,3.6283662273601722,-0.12337331537872243,-0.9561620569897894,-4.873787033600477,0.18235413575529202,-0.9548505959494652,-3.7977096863811988,0.012126257874704116,-1.4731305886923638,-1.5659568003261217,-0.2678790703804126,-1.4784234236362146,-1.4426925878045438,-0.25427114081115354
105,0.08746500000000003,0.2223372459411621,-0.1997714252605631,-5.566258085000081e-06,0.19477848348812116,-0.007221547616518137,0.19604099547827725,-5.106950565998054,-0.009986531316685476,0.19610445161814236,-5.1562296328976425,-0.011726764581898863,0.025445739141765584,-2.8602064831167864,-0.02587566422908133,-0.5288881885269053,3.4740387189689272,0.03160091350215466,-0.960026174480126,-4.638796507006706,-0.05476567499240459,-0.9580016073938489,-3.7827268239899827,-0.0047057930231249046,-1.4747212700362635,-1.9095814452576985,0.07884469944479267,-1.479895795396168,-1.7675531331972747,0.07364701769065385
106,0.08829800000000003,0.2223372459411621,-0.19977028449922904,-5.535658688463877e-06,0.19401676992286118,-0.007247263908048688,0.19177673923641267,-5.119155152298402,-0.000625625349378045,0.19179762099326014,-5.170264855800987,-0.0003933750824141602,0.023035162722625176,-2.893849242665554,0.004758788070980652,-0.5259606421905992,3.5144613881225504,-0.00489750669435618,-0.9639482880909781,-4.708419700902927,0.01584471021528633,-0.9611576473933147,-3.788763504760892,-0.0005289318672443422,-1.4762276251756157,-1.8083495070252977,-0.013144491941622594,-1.481289499633364,-1.6731143303674576,-0.011635452689858328
107,0.08913100000000003,0.2223372459411621,-0.19976914148355068,-5.50589042117299e-06,0.1932480329796473,-0.0072730193854106725,0.18751167873352423,-5.120120651726826,-0.0026353555663857775,0.18749018200894843,-5.170995179245755,-0.00249249206060842,0.02062940049024688,-2.8880699068166815,-0.004235013187332742,-0.523037905764136,3.50868718663054,0.005007562559402157,-0.9678532466878843,-4.687825446466016,-0.0038226524241651294,-0.9643142182851414,-3.7894008305242477,-0.0017487885786069413,-1.477747782854495,-1.8249191823281423,0.013112397883084936,-1.4826954250280415,-1.6877855878480026,0.012616339804622179
108,0.08996400000000003,0.2223372459411621,-0.19976800680905513,-5.477243031559855e-06,0.19247237235585785,-0.0072991971974665625,0.1832437865600366,-5.123520016191637,-0.4010169687014094,0.18318008654398055,-5.174184231654119,-0.3840794964048414,0.018218806601458092,-2.8938702146323987,-0.4530759773993648,-0.5201095063916997,3.5154854410999445,0.4551969926991579,-0.971761978200347,-4.692354756858029,0.31953020877545724,-0.9674726347209477,-3.791616369515309,-0.009005643193348511,-1.479253750597389,-1.8078844452510574,0.881172349130062,-1.4840877201233411,-1.6714226834329036,0.8685290668835348
109,0.09079700000000003,0.2223372459411621,-0.19976687845135843,-5.44962209538456e-06,0.19168977051773825,-0.007325613244514435,0.17860293530851984,-5.571250001820831,0.04749569476863447,0.17850026667381375,-5.6180310566228036,0.060661696999431414,0.015358736705658944,-3.4334572578621234,0.0878396770551278,-0.5167085269207414,4.0828084885453695,-0.11277761742946968,-0.975378123307916,-4.341110573312015,-0.033675217866469875,-0.9706319703424847,-3.792719833777929,-0.009731714108343947,-1.4798148708565306,-0.6736137564723756,-0.25300149932413374,-1.4845554676196544,-0.5615216042177411,-0.2411732563013358
110,0.09163000000000003,0.2223372459411621,-0.19976602915263497,-5.410988706140765e-06,0.19089672900511503,-0.0073451810788422245,0.17400475412373692,-5.520025431912276,-0.00337289796640744,0.1738790668457506,-5.547658857218667,-0.009402334390153255,0.012586667965932254,-3.327813613117275,-0.017355368025677248,-0.5134253081030177,3.94143915693129,0.029117758033753605,-0.9790264891972258,-4.379790983565171,0.0033661571081817776,-0.9738029889475005,-3.806745024028527,0.0025807707994252027,-1.4806460922389932,-0.9978648048771486,0.0740474006383357,-1.485279918011304,-0.8696883453178847,0.06975926978246605
111,0.09246300000000003,0.2223372459411621,-0.19976515211038165,-5.376167299713827e-06,0.1900971828369858,-0.007364650208176946,0.16940358103307837,-5.52361715565253,-0.0022352994017124095,0.16924847688500255,-5.558931525507863,-0.00041804855083060755,0.00979630188901268,-3.3497792039850833,0.001732311390615443,-0.5101110359281976,3.9787180970228504,-0.004731635480257568,-0.9826712567111707,-4.375471205216045,-8.759974808980608e-05,-0.9769710727903398,-3.8032219001671494,-0.0030493486352123345,-1.481398061122864,-0.902723750144984,-0.01250701286456879,-1.4859298309574673,-0.7802076184433102,-0.011222319193045616
112,0.09329600000000003,0.2223372459411621,-0.19976428261330506,-5.3421588614993675e-06,0.1892906680340774,-0.007384878996786819,0.1647998393327707,-5.526700720657453,-0.0017109404724498511,0.16461736311359373,-5.5595603498305035,-0.002196248729279704,0.00700726495738102,-3.3481835913945495,-0.0029160961066668767,-0.5068014602499075,3.9730800459665234,0.004530915395573931,-0.9863156452039689,-4.375016197836935,0.0004366247643790011,-0.9801424078861718,-3.807124964984397,-0.0012375704138105625,-1.48216307264125,-0.9183811745328294,0.01217051158505511,-1.4865915214521366,-0.7943463321359744,0.011831616804098277
113,0.09412900000000003,0.2223372459411621,-0.19976341912719697,-5.309546994739215e-06,0.1884771999671665,-0.007405255917559068,0.16019420416317326,-5.5289737930341545,-0.35861540291433075,0.15998395326897685,-5.562316740236344,-0.3396788979746068,0.004214739718352346,-3.3523712353285404,-0.4424518249708227,-0.5034867756819302,3.979213166839443,0.40557559632465146,-0.9899591846151422,-4.37399689216482,0.3194806334209839,-0.9833150269452625,-3.8086663374438476,-0.04760251540738891,-1.4829148251655315,-0.9024640147437812,0.8315931001938421,-1.487240413170506,-0.7789816547050452,0.8188239567030617
114,0.09496200000000003,0.2223372459411621,-0.19976256162647438,-5.278162726200851e-06,0.1876567833968244,-0.007425962807981439,0.15525636617975036,-5.9277766907838005,0.04096925159080744,0.1550235518403202,-5.9548636598519185,0.053753873712356015,0.0009825259264533539,-3.8802086337322836,0.08676454712884538,-0.4997507163406942,4.4850652355774985,-0.10091680922335866,-0.9933006098134946,-4.011314763928448,-0.045251895868267056,-0.9865300788557992,-3.8596061350980597,0.0016831637980248004,-1.4827753278757507,0.16746373323024066,-0.23835963580007075,-1.4870175017149874,0.26760078693704226,-0.22768928213642414
115,0.09579500000000003,0.2223372459411621,-0.19976200899255483,-5.237328654847544e-06,0.1868263061430692,-0.0074394344019638875,0.15035471482438673,-5.884335360580609,-0.002052188137484867,0.15011522569544933,-5.892348313170325,-0.008396373735705731,-0.002162971075839299,-3.776106845489379,-0.016825435314197862,-0.49612014675704474,4.3584268711277865,0.026136115992265063,-0.9966864446816216,-4.064627692829554,0.006454728677707466,-0.9897446390421636,-3.859015829969185,-0.0005661770213722939,-1.4828901109766706,-0.13779483903931605,0.0694167523566035,-1.487036958246399,-0.023357180566013047,0.065761568038534
116,0.09662800000000003,0.2283320426940918,-0.1997614172774236,-5.2003167613875025e-06,0.18598924590662225,-0.007452808365524564,0.14545142243914247,-5.886305384446876,-0.002094475278706709,0.1451985644657759,-5.902354417375068,-0.0002851916904572094,-0.005326244573026452,-3.7974471754947814,0.0017781665141800018,-0.4924617091357904,4.391881898264543,-0.004370717810344926,-1.0000653141095617,-4.056265819855924,-0.0019297979996200088,-0.9929595951635913,-3.8594911421701155,-0.00201437958522499,-1.482930520609806,-0.04851096414808903,-0.011918874784465516,-1.4869861300096765,0.061018291383418105,-0.01073450282571034
117,0.09746100000000003,0.2283320426940918,-0.1997608352482352,-5.164355031016498e-06,0.18514521479325158,-0.007466971616230469,0.14054567234605234,-5.889255814033781,-0.0012498963804113417,0.1402816046565527,-5.9027128562103135,-0.0019317294070101965,-0.008488268715799684,-3.7959473502679857,-0.002636159115184833,-0.4888076455367996,4.386630971177447,0.0040078039025742696,-1.0034456369973055,-4.058010669560321,-0.00011331485007404218,-0.9961766947835893,-3.8620643697454144,-0.0013561807902087164,-1.4829832690784817,-0.0633234918074141,0.011263120000636784,-1.486946557073276,0.04750652629099417,0.011062956749788078
118,0.09829400000000003,0.2283320426940918,-0.19976025783912627,-5.129990835533846e-06,0.1842942177735455,-0.007481249757090459,0.13563847752916353,-5.890990176337095,-0.30973761469143446,0.13536269578434162,-5.905052667720396,-0.2964648502597685,-0.011653591940802415,-3.799907833136533,-0.4327189634062967,-0.4851490808476515,4.392034440754044,0.3555853590255861,-1.0068255786826295,-4.057553043606283,0.2075470131633972,-0.9993951957699122,-3.8637466822603983,-0.035354886524963325,-1.4830236526415699,-0.048479667573012586,0.7816156013633557,-1.4868950011715953,0.061891838752360595,0.7711227995497596
119,0.09912700000000003,0.2283320426940918,-0.1997596857994232,-5.097059553409306e-06,0.18343626212199282,-0.0074958589356460366,0.13044445803921878,-6.235317514939655,0.03536656719106199,0.13015800135633757,-6.24813256663151,0.047487418287355365,-0.015252484355015332,-4.320399056678172,0.08922644244716987,-0.48112075693504214,4.835923064357001,-0.08891827308773392,-1.010001358783207,-3.812461105135217,-0.03951871973418131,-1.0026441118611704,-3.9002594132752857,-0.00043901957775593914,-1.482226797911464,0.9566083194547166,-0.22359895052641088,-1.4860222509479233,1.0477193561488098,-0.21475079623633353
120,0.09996000000000003,0.2283320426940918,-0.1997593995403832,-5.056792860116486e-06,0.18256860837148703,-0.007503935219752544,0.12528132310340928,-6.198241219459187,-0.0012417305508214682,0.12499949026187743,-6.1926903895079635,-0.007544222535620149,-0.018761830834835673,-4.212900936158872,-0.01771295510422806,-0.477185488921902,4.7242113002883,0.02310904146529591,-1.0132155056028977,-3.8585195914654355,0.004949639360654956,-1.0058947097983406,-3.902278435978643,-4.248295781827949e-08,-1.4816682908326322,0.6704766852723861,0.06478959530662165,-1.4853781155317347,0.7732718081495015,0.061936821448168033
121,0.10079300000000004,0.2283320426940918,-0.1997590677465866,-5.020239058684685e-06,0.18169431125426896,-0.007511955038042126,0.12011734355457757,-6.199255160662322,-0.0017653292122599695,0.1198335577632665,-6.201599638188397,-0.00015000332831349716,-0.02229000794222976,-4.235506731565531,0.002397567766659031,-0.47322559170112877,4.753778176198349,-0.00397724922073639,-1.0164241743279583,-3.8519432473715494,-0.0031217694078227165,-1.0091450904330443,-3.90201756867199,-0.0019196700673660416,-1.4810402858717773,0.7539075160323994,-0.011303175754318051,-1.4846677652477467,0.8527614453637762,-0.010278690487852904
122,0.10162600000000004,0.2283320426940918,-0.1997587470061796,-4.984948114149586e-06,0.18081303832271284,-0.007520736351794173,0.11495121760020201,-6.201831878001877,-0.0008062757642291474,0.11466755722464032,-6.201681318878962,-0.0016835433281356393,-0.02581640108190138,-4.233365113651404,-0.002420708477963218,-0.4692697118756617,4.748955372709596,0.0034879440537194384,-1.0196354369950502,-3.8550572233995837,-0.0014693603234929853,-1.012397508239326,-3.9044631527991775,-0.001116335366949217,-1.4804238901773612,0.7399708216278065,0.010379026719589346,-1.4839681835818577,0.8398339326397564,0.010317957996599958
123,0.10245900000000004,0.2283320426940918,-0.19975842930502302,-4.951411902642752e-06,0.17992479060254768,-0.007529622316696095,0.10978407631946223,-6.203050757190612,-0.25516511317804813,0.10949994424261111,-6.203617025245154,-0.25352597674990013,-0.029345985354710117,-4.237196005772794,-0.4100998571024014,-0.4653099363662358,4.75363206413674,0.30549120713853783,-1.022847636748077,-3.856182176502626,0.017099173125499245,-1.0156510652725497,-3.9058307721773655,-0.011031735129876763,-1.4797960019031116,0.7537674360741118,0.7326022591848769,-1.4832574109228096,0.8532684982569694,0.7227513711788474
124,0.10329200000000004,0.30072736740112305,-0.19975811608848226,-4.919473688697568e-06,0.17902957623187152,-0.0075388359118374665,0.104379363420286,-6.488250779323193,0.030803114511015806,0.10408713170632512,-6.497974233236488,0.041684130527645,-0.0332919142988398,-4.737009536770327,0.09123237360921758,-0.4610320893807711,5.135470570785902,-0.07692458132489699,-1.0260543211575273,-3.849561115786738,0.008970762889489059,-1.0189108093919372,-3.913258246563606,-0.005173247039347739,-1.478383879007029,1.6952255655252946,-0.2090676342136546,-1.4817767627108624,1.7774888498765664,-0.20161051014089804
125,0.10412500000000004,0.30072736740112305,-0.1997580214703004,-4.882718302518584e-06,0.17812501655000107,-0.007543098734326654,0.09900194626475124,-6.455482779753621,-0.0014696369384890884,0.09871513322635829,-6.4489777670670305,-0.006867576918793111,-0.03714504640125136,-4.625608766400431,-0.01957766546377486,-0.45683486275852137,5.038687421668371,0.02008748961051099,-1.0292483433024753,-3.834360318064943,-0.007864006997448492,-1.0221769714385616,-3.920962841085547,0.0010265404592506577,-1.477194424768864,1.4279162522989444,0.0602566016445234,-1.4805107617133442,1.5198091206701556,0.058074161509650946
126,0.10495800000000004,0.30072736740112305,-0.19975789082182338,-4.849277106249086e-06,0.17721378548941752,-0.007547471167821307,0.0936233003558692,-6.4569578738079665,-0.0011549422878089355,0.09333645962777999,-6.456991114739858,2.0817404426498598e-05,-0.04101928391929726,-4.650945399815008,0.0034376175400591957,-0.4526162437119098,5.0643686033752395,-0.0035518252972209785,-1.0324503194396368,-3.843908928165031,0.00044613198486009864,-1.0254418605151938,-3.9194346658250434,-0.0022260249885115435,-1.4759402505170276,1.5056113467424845,-0.010689393566457595,-1.479182658219987,1.5943619368033155,-0.009783493385602693
127,0.10579100000000004,0.30072736740112305,-0.19975776917672758,-4.817293482974719e-06,0.1762955657665555,-0.007552454350865461,0.0882431682065217,-6.45874207604742,-0.0006041000811283503,0.08795798787869578,-6.456748798420419,-0.0014346366851480108,-0.04489066876948406,-4.647520828555588,-0.002501275620404475,-0.4484012498009658,5.0600166998127065,0.002984918684439175,-1.0356510174873215,-3.8423746070643747,-0.002322804590581651,-1.028709090953588,-3.922245424242816,-0.0011271347507397778,-1.4746969639100724,1.4925409447241893,0.009522333792928883,-1.4778647960709026,1.582067405863641,0.009588269129827909
128,0.10662400000000004,0.30272769927978516,-0.19975765023872957,-4.78712873049573e-06,0.17537037006637204,-0.007557585652939981,0.08286223033251071,-6.459709332546213,-0.21163742739703362,0.0825782513730266,-6.458267113648478,-0.207915033069378,-0.04876542031557923,-4.651562480306326,-0.3956078269148801,-0.44418294757089727,5.063988271390774,0.2572985362901886,-1.0388534615007874,-3.844470604400983,0.03848372756465679,-1.0319774618164061,-3.9236144811740226,-0.027598406624009364,-1.4734430327921642,1.5053194692776,0.6838178728045046,-1.4765365201253537,1.594568962243608,0.6752363546534099
129,0.10745700000000004,0.30272769927978516,-0.19975753523245784,-4.758651182791838e-06,0.17443820260310253,-0.007563017762869258,0.077285808227028,-6.694384280291355,0.023767059876687535,0.07699742034657732,-6.699677102580176,0.03430541086583466,-0.05304252580792776,-5.134580422987425,0.08895300028679326,-0.4396962812389719,5.3861540599343884,-0.0653991360441123,-1.0420266971643568,-3.809406558906844,0.0019104427545824088,-1.0352700308249179,-3.952663875764468,-7.4945123906822175e-06,-1.471457582606967,2.383493619684578,-0.19463658804380302,-1.4744887749711122,2.458277496088431,-0.18869377766722906
130,0.10829000000000004,0.30272769927978516,-0.1997576630779431,-4.72637434940111e-06,0.17349712681419507,-0.007563000294869753,0.07172984214765021,-6.669827226143815,-0.00026501500332190564,0.07145040512514789,-6.659081898474703,-0.005817496286321111,-0.057229198577878115,-5.02601773103284,-0.018971134371200016,-0.4352783231279506,5.30367120170623,0.01723892060240073,-1.0451947801791484,-3.8032209061122932,-0.0058359758436825615,-1.0385634575294105,-3.953693522800193,-0.0004277529956810966,-1.469679226143455,2.134881708897765,0.055765949518536306,-1.4726419542984301,2.2170716358726987,0.054299728888282495
131,0.10912300000000004,0.30272769927978516,-0.19975774623301443,-4.697274576736018e-06,0.1725493039864218,-0.007563109862522721,0.06617387686341174,-6.669826271594802,-0.0010123966358199787,0.06589782857078541,-6.665758168502373,0.00010388054056453822,-0.061436397575850954,-5.050659061191879,0.003585256586742497,-0.430842014968922,5.325700070862676,-0.0031764476999612823,-1.048368568743002,-3.8100703047463127,-0.0008766169544727198,-1.0418571457645587,-3.9540074851720344,-0.0017057265301017033,-1.4678408931205598,2.20688238042655,-0.010054662959173566,-1.4707370496563628,2.286800290597083,-0.009297746775523752
132,0.10995600000000004,0.30272769927978516,-0.19975783983366024,-4.669714197024314e-06,0.17159449866522536,-0.007563827648577618,0.060616573074917246,-6.671433119441162,-0.0002083594213306561,0.06034564294053222,-6.665288871852573,-0.0011946130014492823,-0.06564068952980959,-5.047169212435335,-0.002179318839797273,-0.42640899298377444,5.321755084210736,0.0025049962595441455,-1.051542377872286,-3.8100949931382573,-0.002762962664061952,-1.0451526129354096,-3.9561430622461016,-0.001152233506407807,-1.466012709837934,2.1946978182782053,0.008685240245315917,-1.4688418709812554,2.2751244599128078,0.008876749913688364
133,0.11078900000000004,0.30272769927978516,-0.19975793451273502,-4.644011325154508e-06,0.17063271387887066,-0.00756466517998369,0.055058872627517005,-6.671909300600531,-0.1615354629491543,0.05479252960417885,-6.6664025646499,-0.16334957158007968,-0.06984809873029774,-5.0509114051478425,-0.3715661313129234,-0.42197322325274544,5.325053698714258,0.20882624161361396,-1.0547182970536393,-3.812628068851303,-0.05104292290197332,-1.0484492373469794,-3.957532306806506,-0.019650810906014282,-1.4641747163975358,2.206474718365162,0.6351762004957462,-1.4669370378566506,2.286714435299965,0.6272902993271123
134,0.11162200000000004,0.30272769927978516,-0.19975803222151606,-4.620038263376576e-06,0.16966395596547162,-0.007565794839018277,0.04935230944951442,-6.850616060027113,0.017861079740638025,0.04908096065246617,-6.856625392212106,0.02763789230450764,-0.07443664884216467,-5.508463519648174,0.08755383809649475,-0.417319047575514,5.587245710962061,-0.05384085024746299,-1.0579576533536186,-3.888783073204302,0.023856519056445702,-1.0517626770480457,-3.9777187287712454,-0.0008667476894919091,-1.4616578001792708,3.0215080651441553,-0.1801891345834954,-1.464363597855859,3.0893637464487043,-0.17564295907353378
135,0.11245500000000004,0.30272769927978516,-0.19975834267946246,-4.593694799304723e-06,0.1686867145227374,-0.0075621481784706665,0.043660928245718496,-6.832390400715396,0.00017338395006520624,0.0433969487302992,-6.823543724090004,-0.004954709790669615,-0.07893559884877742,-5.400900368082543,-0.01933745961259148,-0.4127216195672142,5.519121258463157,0.01437599932748368,-1.061168835270412,-3.854960284265874,-0.0115035761084199,-1.0550776951129384,-3.9796135232806233,-0.0003585282900702147,-1.4593323994679555,2.791597492575517,0.05130460475438836,-1.4619772167044454,2.8648033030173763,0.050504125599669436
136,0.11328800000000004,0.30272769927978516,-0.19975861084713256,-4.570209170559172e-06,0.16770267609870124,-0.007558715379783959,0.03796991819447977,-6.8319448394222375,-0.0006686511176023785,0.037708304930949205,-6.8291042009003595,0.0002223407407946354,-0.08345564893736494,-5.426230598544439,0.004109383032717406,-0.40810889986964194,5.537478628538125,-0.002771288707614561,-1.0643916075598496,-3.8688742970437815,0.0009096184437482613,-1.0583929172753497,-3.979858538308809,-0.0017478619748199087,-1.4569517408409605,2.857933525804367,-0.009402075837690482,-1.4595367947878601,2.9296781711707607,-0.008783325624252658
137,0.11412100000000004,0.30272769927978516,-0.19975888828726715,-4.5483044114023145e-06,0.16671165665645027,-0.007555806011932353,0.03227796160321565,-6.833081141973732,2.7492476320611914e-05,0.03202027524045323,-6.828366975385329,-0.0009569223174213798,-0.0879722800068282,-5.422126133809431,-0.002070630410856422,-0.4034990916781466,5.533983423163642,0.0020356735181986663,-1.0676124267283207,-3.8665296140109353,-0.0029599491865015537,-1.0617099457681884,-3.982027002207278,-0.0012099495459469978,-1.4545804841224248,2.846646720931085,0.007870720587023428,-1.4571055543722795,2.9186559610811034,0.008177447940787452
138,0.11495400000000004,0.30272769927978516,-0.19975916589943754,-4.528214666670527e-06,0.16571366052305275,-0.007553019942588239,0.02658587026483817,-6.833242903214263,-0.11836196514022651,0.02633165561983851,-6.829075174807585,-0.11728525170137724,-0.09249198528427353,-5.425816659598241,-0.3514709128852522,-0.3988870821698272,5.536626060407489,0.16192667038272834,-1.0708354794056232,-3.869210897121894,-0.01185935336891708,-1.0650281818354121,-3.9834766713368954,-0.03308111377741785,-1.4522002359754433,2.8574407526788366,0.5865723884818199,-1.4546654074458403,2.9293480509475276,0.5796271583833952
139,0.11578700000000004,0.3047294616699219,-0.19975944567103202,-4.509826074562543e-06,0.16470869286877346,-0.007550498954092756,0.02078687067482571,-6.9615841416716195,0.010609544347041852,0.020529223568901075,-6.96570474302213,0.020046302574396796,-0.09737263235161107,-5.859120128856588,0.08339716764327265,-0.3941049758756891,5.7408238825187405,-0.042682375903620895,-1.0740794585006141,-3.894332647047967,0.01196911122494937,-1.0683778482189117,-4.021208143456746,0.0033461857794421235,-1.44919360364675,3.6094025554540368,-0.1657571788435268,-1.451607216749012,3.6712973551359696,-0.16265308514214327
140,0.11662000000000004,0.3047294616699219,-0.19975996324300413,-4.489625276645267e-06,0.16369571562248372,-0.007542512126939629,0.014995980770129523,-6.951848625085461,0.0014232019376320126,0.014747126069064097,-6.941293517211257,-0.0038662826862514432,-0.10216806451303906,-5.756821322242475,-0.01818917675975873,-0.38936809269594297,5.686534429467122,0.011648084116820168,-1.0773079103503973,-3.875692496738543,-0.008119596868759515,-1.0717245575005605,-4.017658201258991,-0.001537499999808123,-1.4463629288349042,3.3981690418316575,0.046868145397182204,-1.448722288256674,3.4632995106098226,0.04674644209181267
141,0.11745300000000004,0.3047294616699219,-0.19976042904445565,-4.472089021862995e-06,0.16267586459849323,-0.007534762384483635,0.00920675218385653,-6.949854245225683,-0.0005982015685195019,0.00896154615402083,-6.945474087686996,0.0002838355225628503,-0.10698342103418013,-5.780740121417857,0.004089218504280984,-0.38461882393411784,5.7014030754202984,-0.0024015044122458473,-1.0805442759034718,-3.8851927407858238,-0.0003225641838526805,-1.0750727116035705,-4.019392680684196,-0.001341067238985083,-1.4434817001042521,3.4588580199905055,-0.008725946475362623,-1.4457873226979585,3.5233680176654762,-0.008264330116611873
142,0.11828600000000004,0.3047294616699219,-0.19976090525165083,-4.45608781914349e-06,0.16164904631133908,-0.007527525193817148,0.003416671037140325,-6.9508777271503055,0.0003735725433081094,0.0031767464355718696,-6.944537477129605,-0.0007244961501427366,-0.1117954604370088,-5.776757986589044,-0.001717951936478751,-0.37987212662027503,5.6983161030525755,0.001583765454430619,-1.0837799098122456,-3.8843144162950276,-0.002931226011840149,-1.0784222294161179,-4.021029786971604,-0.0012413527933743396,-1.4406091095585178,3.4484880501012865,0.007075060976993619,-1.44286099099308,3.513003247153113,0.007491185757799723
143,0.11911900000000004,0.3047294616699219,-0.1997613796417396,-4.441821969970076e-06,0.16061525377045843,-0.00752036850034586,-0.002373167805655994,-6.950586846094021,-0.07113523405216772,-0.0026083155866698455,-6.944852367637114,-0.07219345181827559,-0.11661026935358113,-5.780082732979973,-0.324748797765069,-0.3751237516346971,5.700330114739443,0.11514897816231962,-1.0870176607975444,-3.886855924728305,-0.04454788088681427,-1.0817729772072817,-4.022506351937254,-0.029109035860171772,-1.4377283360924005,3.4583114839345237,0.5378210376270518,-1.4399264883770844,3.522812264100483,0.531574011741331
144,0.11995200000000004,0.3047294616699219,-0.1997618549719273,-4.429179579064539e-06,0.15957449457967224,-0.007513454645989604,-0.008225207319583275,-7.025257519720625,0.004103315433751364,-0.008463801819166304,-7.029395237090587,0.012984561660358968,-0.12176064943479781,-6.182929269167687,0.07965610959457808,-0.3702534175173253,5.846739636700762,-0.03159861433533573,-1.0903092319495717,-3.951465968820484,0.018891198300709178,-1.085151692872155,-4.056081230340142,0.0032204292241782007,-1.4342739078797373,4.146972644253545,-0.1512274617981184,-1.4364249190696645,4.203564594741626,-0.14953994956317773
145,0.12078500000000005,0.3047294616699219,-0.19976255621448324,-4.415428057189688e-06,0.1585261968188315,-0.0075011976293421915,-0.014075182226202347,-7.022778999542703,0.0021720250420627363,-0.014305631656057465,-7.013001004671262,-0.0029110906898586475,-0.1268293666603719,-6.084894628540314,-0.017636788417287497,-0.36541684974351674,5.806203810094349,0.008936805170372875,-1.0935781297518266,-3.924247061530281,-0.009725407391874885,-1.0885274491759354,-4.052528575966766,-0.0016072320786642003,-1.4309797886417364,3.9545248955592873,0.04243603753660974,-1.43308268405497,4.012286932406331,0.042969425036006204
146,0.12161800000000005,0.3047294616699219,-0.19976320391648805,-4.404034481000012e-06,0.15747096527759022,-0.007489226417794898,-0.019922766755152296,-7.019909398499337,-0.0003817541509485989,-0.020149930876974108,-7.015965451280486,0.00036715105816637755,-0.1319175390967849,-6.108250223785142,0.004322644817436216,-0.3605707826889428,5.81760750849208,-0.002019026617571029,-1.0968565418127054,-3.935668740550727,0.0001027435064475668,-1.0919047296519448,-4.054358314537147,-0.001258906125003012,-1.4276398241773058,4.009561181789247,-0.008023816736994593,-1.4296944383047254,4.067521909057126,-0.00772167769550558
147,0.12245100000000005,0.3047294616699219,-0.199763861132687,-4.394085777664644e-06,0.1564087780059421,-0.00747770270163214,-0.025770941960165508,-7.020618493413222,0.0006362876818752083,-0.025993269401146914,-7.014812153868915,-0.0004948615047836585,-0.13700219370372332,-6.104027139181761,-0.0014754530841819546,-0.35572692774158293,5.814951917598914,0.001140015698020802,-1.100133702633964,-3.934166652171063,-0.0030233084945052724,-1.0952832733139282,-4.055874744277718,-0.0012249100192307516,-1.4243077176650494,4.00012786585421,0.006299758921307852,-1.4263142549514611,4.057843161181686,0.006813929584135181
148,0.12328400000000005,0.3047294616699219,-0.19976451478486074,-4.385729000946779e-06,0.1553396235844223,-0.007466236454369527,-0.03161857816291273,-7.0199714318694175,-0.026152097066042962,-0.031836550047126703,-7.014742672244648,-0.02697016687066152,-0.14208942016101186,-6.107114594584072,-0.29719176155063376,-0.3508819051763127,5.816353619772213,0.06946541393530647,-1.1034130042909491,-3.936736683055552,-0.03913811486001917,-1.0986630196203153,-4.057318495062591,-0.02949889984169518,-1.42096822582086,4.008993810551564,0.488970727872549,-1.422926628237495,4.066778768266477,0.48340871060278
149,0.12411700000000005,0.30972814559936523,-0.19976516789994525,-4.37885973300016e-06,0.15426350999317204,-0.007454979046595261,-0.037485323284945644,-7.042911310963882,-0.002717571882442635,-0.037706601264029825,-7.046880212368695,0.005725785029309358,-0.14748506538150563,-6.477365210676783,0.07459374737939484,-0.345961893558973,5.906376491404183,-0.020815572974035357,-1.106738984437879,-3.9927732856299967,0.01576271734985024,-1.1020717049211044,-4.092059184620711,0.0040607724696832825,-1.4171079244988123,4.634215272566278,-0.13664242251681324,-1.4190230337506589,4.686187859347288,-0.13637763240954648
150,0.12495000000000005,0.30972814559936523,-0.19976604889334929,-4.371227941225239e-06,0.15318034864253555,-0.007438100581455067,-0.04335648460177059,-7.048212865336076,0.0031227905268069456,-0.04356989097022768,-7.038763152698508,-0.0019004779720052933,-0.15280416668188967,-6.38547575076115,-0.016526258900018687,-0.34106450892134793,5.879213250450262,0.006315822499658563,-1.110045759602984,-3.96971808536022,-0.008620303102750082,-1.1054764404088644,-4.0873175123169805,-0.001901415211078561,-1.4133922339016414,4.460612961789904,0.03801430713368115,-1.4152647947439376,4.511691484659359,0.039195045148014085
151,0.12578300000000003,0.30972814559936523,-0.19976687125525355,-4.365662185866751e-06,0.15209018729762552,-0.007421541782915524,-0.04922429546958554,-7.044190717664998,-0.00025218684007093095,-0.04943459029945327,-7.040455377221591,0.0004359633605280633,-0.15814161531473533,-6.407501359958786,0.004358138383543708,-0.33616040883059306,5.887275018913414,-0.0016519915712988054,-1.1133607918819188,-3.979630586956444,-0.00022503936132389768,-1.1088830112855388,-4.089520860353295,-0.0010977257194850765,-1.4096354076458473,4.509995505154958,-0.007295391495525383,-1.411464569979503,4.562094555143663,-0.007163651573714791
152,0.12661600000000003,0.30972814559936523,-0.19976770267190186,-4.361390618948445e-06,0.15099308701407432,-0.007405382668840027,-0.05509252573088855,-7.044694191240108,0.0009117101540193351,-0.05529817053469986,-7.039111927066743,-0.00026556412323736067,-0.16347555445126918,-6.4032882791522905,-0.0011649746433707864,-0.3312581723523455,5.885037789012666,0.0007101503284345778,-1.1166748608454409,-3.9784741458848223,-0.002925719820564332,-1.112290663242737,-4.090818676108336,-0.0012013692656682728,-1.405885642400033,4.501518902538029,0.0055436814390370515,-1.4076718211824442,4.553119804392426,0.006146575428036094
153,0.12744900000000003,0.30972814559936523,-0.19976852831407552,-4.358523763407646e-06,0.14988902839361556,-0.007389243002371482,-0.06095990418938362,-7.043671618841629,0.018659402947595174,-0.061161381889058036,-7.038669092866953,0.017723438387203472,-0.16881178448240108,-6.406038452739385,-0.2671526107817196,-0.32635525784274283,5.885851752224131,0.024657282240319156,-1.1199909028317279,-3.980842720632513,-0.03681841161163035,-1.1156994835166103,-4.092221217134917,-0.026411727851884503,-1.4021292803976788,4.509438178096145,0.43995187261261526,-1.4038723474775203,4.561192923077932,0.4350273122767958
154,0.12828200000000003,0.30972814559936523,-0.19976935168882284,-4.356961648330701e-06,0.148778020756233,-0.007373276300626765,-0.06680355257718229,-7.015184139014013,-0.00941347219608385,-0.06700827097012572,-7.019074527092056,-0.0013961162583989994,-0.174426748898833,-6.740653561142743,0.06896271820020006,-0.3214233770596432,5.920625189795484,-0.010287686380567984,-1.123349707855993,-4.032178900678594,0.0134208896542658,-1.1191345411165738,-4.123718607399221,0.003958259538851205,-1.3979051555018998,5.070978266241275,-0.12196934171452822,-1.3996082373463965,5.118979749248291,-0.12313765098369966
155,0.12911500000000004,0.30972814559936523,-0.19977040004089092,-4.354832494348737e-06,0.14766046378172873,-0.007351475886897719,-0.07265794883287292,-7.028086741525363,0.004011213678122322,-0.07285516661089748,-7.019082401886872,-0.0009131647372477014,-0.179970852158111,-6.655586145591843,-0.015313088343677006,-0.31650324718007955,5.906518462861486,0.0037650185392551494,-1.1266919696360367,-4.012319063677683,-0.0077012585690479085,-1.1225656568097127,-4.118986426337124,-0.0019407434650635658,-1.3938098606767508,4.9163203183059565,0.033595780745079296,-1.3954754214607554,4.961363608212683,0.03541329541660243
156,0.12994800000000004,0.30972814559936523,-0.19977138551585494,-4.354455586643414e-06,0.1465358430629027,-0.0073300234026899,-0.07850810247673165,-7.022993570058495,-0.00011762943897053457,-0.07870244558829853,-7.019542589917225,0.000507617834916152,-0.1855320821971701,-6.676146505473097,0.004368654616396461,-0.3115791058276382,5.911334156592256,-0.0012926040820691043,-1.1300414365031024,-4.020968627929994,-0.0004780450662620339,-1.1259986505882544,-4.121241030662521,-0.0009885370733293541,-1.3896781478380824,4.960039422171035,-0.006539156210565444,-1.3913046542870502,5.006923377797493,-0.006587902727076322
157,0.13078100000000004,0.30972814559936523,-0.19977237908815346,-4.355179388657321e-06,0.14540430211114347,-0.007308915666378083,-0.08435849701472703,-7.023282758697936,0.001170345988757926,-0.08454845574792381,-7.018019399310058,-3.5814407504553e-05,-0.19108982481771025,-6.671959928619634,-0.0008531844729306459,-0.30665648115827754,5.909513408596267,0.0002916089092581675,-1.1333901613027115,-4.02007779064732,-0.002818265552716248,-1.1294325995683474,-4.122387731204159,-0.001144889493829293,-1.3855526813000412,4.952540861994311,0.004807135307056232,-1.3871407589811113,4.998673836661198,0.005487524192840265
158,0.13161400000000004,0.3107306957244873,-0.1997733644710591,-4.357082255367386e-06,0.1442658139288341,-0.007287788125545519,-0.09020774373772565,-7.02190482953016,0.06281101025935526,-0.09039379683194636,-7.017216187301977,0.06178307479173675,-0.1966495652669192,-6.674358282363699,-0.23515617176179654,-0.3017336497951451,5.909761540375071,-0.01911050206492093,-1.1367406924435113,-4.022246267466699,-0.03229745630827319,-1.1328676487754168,-4.123708531896147,-0.020871708505382447,-1.381421397564118,4.9595242928247725,0.3908418287285609,-1.3829708497080184,5.005893485105595,0.3864123279715761
159,0.13244700000000004,0.3157389163970947,-0.1997743455886903,-4.360068985202139e-06,0.14312038901599325,-0.007266793584470731,-0.09599107137017047,-6.942770267040601,-0.01599543449742183,-0.09618037550748343,-6.946673079876445,-0.008374589109931385,-0.20245623464629542,-6.970791571880212,0.0627311231072129,-0.2968267566147725,5.890628067674229,-5.624947886029297e-05,-1.1401277535532501,-4.066099771595181,0.01049002771772578,-1.1363236167251918,-4.148821068157193,0.0031579644903425574,-1.3768755160059236,5.457240766139829,-0.1072310634471294,-1.3783878875831335,5.501755251962866,-0.10981422129153628
160,0.13328000000000004,0.3157389163970947,-0.19977554663061453,-4.362540406266612e-06,0.14196891852722376,-0.007239763165150171,-0.10179136249695692,-6.963134605986125,0.0048666571243015655,-0.10197359928409296,-6.954650392088267,5.461763647937601e-05,-0.20819835182704208,-6.893297936070406,-0.013954029336391838,-0.29192104442506567,5.889210311772907,0.0012940962143384027,-1.1435015752259718,-4.050206089702033,-0.006602068648076553,-1.139776395120622,-4.1449920713447135,-0.0017857911309033803,-1.3724426256944824,5.321597012534381,0.02918618376521609,-1.3739220694520182,5.361126207821405,0.03162148038178225
161,0.13411300000000004,0.3157389163970947,-0.19977668085664876,-4.366441502530584e-06,0.1408103220917625,-0.007213101259618165,-0.10758655482599308,-6.95701360028351,1.062422792338924e-05,-0.10776621247457766,-6.953917395539851,0.0005836511830086544,-0.21395620974747412,-6.912194382271349,0.004332410968407807,-0.28701393426138333,5.890888551839545,-0.0009433535989771258,-1.1468813698177025,-4.057376460661072,-0.000732157983566406,-1.143230889220064,-4.14705174002652,-0.0009266970767209948,-1.3679780370792982,5.359650198300258,-0.0057573441527725144,-1.369422346757763,5.401827964291764,-0.005993314588002896
162,0.13494600000000004,0.3157389163970947,-0.1997778218855086,-4.371217036706269e-06,0.13964482593492708,-0.007186727747311526,-0.11338181623593246,-6.957096530539468,0.0014151878713644928,-0.11355741663906507,-6.952225887739989,0.00019591845858746293,-0.21971063913272182,-6.908078493694715,-0.0005355685421786216,-0.2821079976796271,5.889479689983484,-0.00011465107769004224,-1.150260658602019,-4.056769248879318,-0.0026559544024453707,-1.1466862643448883,-4.148109393546525,-0.0010678518199749298,-1.3635188646544936,5.353148169033304,0.0040899942051337845,-1.364928872794269,5.394326486787679,0.004836789123163765
163,0.13577900000000004,0.3157389163970947,-0.19977895212946578,-4.376919033680024e-06,0.13847239542155257,-0.007160293377752145,-0.11917564902816931,-6.955381503285527,0.10595083072754433,-0.1193476633610607,-6.9510764969935455,0.10503180424173361,-0.22546675478462674,-6.910102823415278,-0.20137087827319444,-0.2772023061172342,5.889185549091108,-0.061683358120691256,-1.1536415419552326,-4.05868349725523,-0.02279159832624167,-1.1501426511384452,-4.149323881820928,-0.01424934785049814,-1.3590546457081747,5.3592064181498005,0.34161910009133223,-1.360430088118943,5.400701891147566,0.33769452678292433
